(1001)
(T1  D=0.148 CR=0.1 TAPER=17deg - ZMIN=-1.1 - tapered mill)
G90 G94
G17
G21
G28 G91 Z0
G90

(Contour5)
T1
S5000 M3
G54
M8
G0 X-5.831 Y-17.704
Z15
Z1.914
G1 Z-0.085 F1000
Y-17.699 Z-0.096
Y-17.689 Z-0.1
Y-16.692
X-5.836 Y-16.681
X-5.846 Y-16.677
X-15.656
X-15.725 Y-16.675
X-15.934 Y-16.66
X-15.951 Y-16.659
X-15.96 Y-16.658
X-15.968 Y-16.656
X-16.194 Y-16.607
X-16.203 Y-16.605
X-16.211 Y-16.603
X-16.226 Y-16.597
X-16.437 Y-16.518
X-16.446 Y-16.515
X-16.45 Y-16.513
X-16.454 Y-16.511
X-16.665 Y-16.396
X-16.671 Y-16.393
X-16.677 Y-16.389
X-16.697 Y-16.373
X-16.873 Y-16.242
X-16.879 Y-16.237
X-16.884 Y-16.233
X-16.906 Y-16.211
X-17.044 Y-16.072
X-17.06 Y-16.057
X-17.063 Y-16.053
X-17.066 Y-16.049
X-17.206 Y-15.863
X-17.216 Y-15.848
X-17.225 Y-15.833
X-17.322 Y-15.654
X-17.338 Y-15.625
X-17.34 Y-15.62
X-17.342 Y-15.616
X-17.416 Y-15.416
X-17.429 Y-15.382
X-17.437 Y-15.347
X-17.482 Y-15.139
X-17.484 Y-15.13
X-17.485 Y-15.121
X-17.498 Y-14.93
X-17.502 Y-14.861
Y-10.416
Y-10.382
X-17.501 Y-10.373
X-17.499 Y-10.364
X-17.496 Y-10.356
X-17.493 Y-10.347
X-17.491 Y-10.342
X-17.488 Y-10.337
X-17.485 Y-10.332
X-17.481 Y-10.327
X-17.477 Y-10.321
X-17.471 Y-10.315
X-17.466 Y-10.311
X-17.461 Y-10.307
X-17.457 Y-10.303
X-17.454 Y-10.302
X-17.456 Y-10.3
X-33.811
X-33.82
X-33.829 Y-10.299
X-33.837 Y-10.297
X-33.846 Y-10.294
X-33.854 Y-10.291
X-33.861 Y-10.288
X-33.868 Y-10.283
X-33.876 Y-10.277
X-33.881 Y-10.273
X-33.885 Y-10.269
X-33.889 Y-10.264
X-33.893 Y-10.26
X-33.896 Y-10.256
X-33.899 Y-10.251
X-33.902 Y-10.247
X-33.904 Y-10.243
X-33.906 Y-10.238
X-33.908 Y-10.234
X-33.91 Y-10.225
X-33.913 Y-10.217
X-33.914 Y-10.208
Y-10.199
Y-10.191
Y-4.444
X-33.915 Y-4.375
Y7.744
Y7.752
X-33.914 Y7.761
X-33.913 Y7.77
X-33.911 Y7.778
X-33.908 Y7.787
X-33.904 Y7.795
X-33.902 Y7.8
X-33.899 Y7.804
X-33.896 Y7.808
X-33.893 Y7.812
X-33.888 Y7.819
X-33.881 Y7.825
X-33.876 Y7.83
X-33.87 Y7.835
X-33.864 Y7.838
X-33.858 Y7.842
X-33.852 Y7.844
X-33.846 Y7.847
X-33.843 Y7.848
X-33.835 Y7.85
X-33.826 Y7.852
X-33.818
X-33.81 Y7.853
X-30.6
X-30.592
X-30.583 Y7.852
X-30.578 Y7.851
X-30.572
X-30.567 Y7.849
X-30.561 Y7.848
X-30.555 Y7.846
X-30.549 Y7.843
X-30.543 Y7.84
X-30.537 Y7.836
X-30.531 Y7.832
X-30.525 Y7.828
X-30.519 Y7.822
X-30.514 Y7.815
X-30.51 Y7.811
X-30.507 Y7.806
X-30.504 Y7.801
X-30.501 Y7.797
X-30.499 Y7.792
X-30.497 Y7.788
X-30.495 Y7.783
X-30.494 Y7.778
X-30.492 Y7.77
X-30.49 Y7.761
Y7.752
Y7.744
Y6.32
X-30.481 Y6.25
X-30.476 Y6.181
X-30.475 Y6.112
X-30.504 Y-5.833
X-30.501 Y-5.902
Y-8.709
X-30.499 Y-8.711
X-0.402
X-0.4 Y-8.709
Y-7.986
Y-7.969
X-0.399 Y-7.96
X-0.397 Y-7.951
X-0.395 Y-7.943
X-0.391 Y-7.934
X-0.389 Y-7.93
X-0.387 Y-7.926
X-0.385 Y-7.921
X-0.382 Y-7.917
X-0.381 Y-7.916
X-0.378 Y-7.912
X-0.374 Y-7.907
X-0.369 Y-7.902
X-0.364 Y-7.898
X-0.36 Y-7.894
X-0.355 Y-7.891
X-0.351 Y-7.888
X-0.347 Y-7.886
X-0.342 Y-7.884
X-0.338 Y-7.882
X-0.329 Y-7.878
X-0.321 Y-7.876
X-0.312 Y-7.874
X-0.304 Y-7.873
X-0.295
X1.614
X1.623 Y-7.874
X1.632 Y-7.875
X1.753 Y-7.89
X1.762 Y-7.891
X1.771 Y-7.892
X1.779 Y-7.895
X1.787 Y-7.898
X1.909 Y-7.945
X1.917 Y-7.948
X1.926 Y-7.952
X1.942 Y-7.963
X1.979 Y-7.989
X2.048 Y-8.038
X2.053 Y-8.042
X2.057 Y-8.047
X2.065 Y-8.055
X2.148 Y-8.151
X2.151 Y-8.155
X2.155 Y-8.159
X2.158 Y-8.164
X2.16 Y-8.168
X2.165 Y-8.177
X2.209 Y-8.264
X2.226 Y-8.298
X2.23 Y-8.307
X2.232 Y-8.316
X2.257 Y-8.423
X2.262 Y-8.447
X2.263 Y-8.453
X2.264 Y-8.46
X2.265 Y-8.472
X2.269 Y-8.541
Y-8.611
X2.266 Y-8.68
X2.273 Y-10.191
Y-10.199
X2.272 Y-10.208
X2.271 Y-10.214
X2.27 Y-10.219
X2.269 Y-10.225
X2.267 Y-10.23
X2.265 Y-10.236
X2.263 Y-10.241
X2.26 Y-10.247
X2.257 Y-10.253
X2.252 Y-10.259
X2.247 Y-10.265
X2.244 Y-10.268
X2.241 Y-10.272
X2.234 Y-10.277
X2.228 Y-10.282
X2.222 Y-10.286
X2.217 Y-10.289
X2.211 Y-10.292
X2.205 Y-10.294
X2.199 Y-10.296
X2.193 Y-10.298
X2.187 Y-10.299
X2.178 Y-10.3
X2.17
X-4.933
X-4.934 Y-10.302
X-4.915 Y-10.303
X-4.905 Y-10.304
X-4.895 Y-10.306
X-4.686 Y-10.351
X-4.652 Y-10.359
X-4.617 Y-10.372
X-4.417 Y-10.446
X-4.413 Y-10.448
X-4.409 Y-10.45
X-4.342 Y-10.486
X-4.192 Y-10.568
X-4.187 Y-10.571
X-4.183 Y-10.573
X-4.166 Y-10.586
X-3.992 Y-10.716
X-3.979 Y-10.726
X-3.967 Y-10.738
X-3.802 Y-10.903
X-3.797 Y-10.908
X-3.792 Y-10.914
X-3.697 Y-11.041
X-3.645 Y-11.111
X-3.642 Y-11.116
X-3.639 Y-11.12
X-3.523 Y-11.333
X-3.519 Y-11.34
X-3.517 Y-11.348
X-3.437 Y-11.562
X-3.43 Y-11.579
X-3.426 Y-11.597
X-3.377 Y-11.823
X-3.375 Y-11.831
X-3.374 Y-11.84
X-3.362 Y-12.014
X-3.357 Y-12.083
Y-12.153
Y-15.029
X-3.352 Y-15.039
X-3.342 Y-15.043
X-2.345 Y-15.029
X-2.334 Z-0.096
X-2.33 Z-0.085
G0 Z5
X-6.876 Y-17.703
Z1.914
G1 Z-0.085 F1000
X-6.872 Y-17.7 Z-0.096
X-6.864 Y-17.694 Z-0.1
X-3.743 Y-15.312
X-3.738 Y-15.302
X-3.741 Y-15.292
X-3.743 Y-15.289
X-3.747 Y-15.283
X-3.75 Y-15.278
X-3.752 Y-15.273
X-3.754 Y-15.269
X-3.758 Y-15.26
X-3.76 Y-15.252
X-3.762 Y-15.243
X-3.763 Y-15.234
Y-15.225
Y-12.153
X-3.764 Y-12.083
X-3.78 Y-11.872
Y-11.87
X-3.831 Y-11.659
X-3.832 Y-11.657
X-3.915 Y-11.456
X-3.916 Y-11.454
X-4.029 Y-11.269
X-4.031 Y-11.267
X-4.172 Y-11.102
X-4.173 Y-11.101
X-4.337 Y-10.96
X-4.339 Y-10.959
X-4.526 Y-10.844
X-4.53 Y-10.843
X-4.727 Y-10.761
X-4.73 Y-10.76
X-4.94 Y-10.71
X-4.942 Y-10.709
X-5.135 Y-10.694
X-5.172 Y-10.692
X-17.094
X-17.096 Y-10.694
Y-14.861
X-17.091 Y-14.93
X-17.079 Y-15.091
X-17.078 Y-15.093
X-17.028 Y-15.304
X-17.027 Y-15.306
X-16.944 Y-15.508
X-16.942 Y-15.51
X-16.829 Y-15.694
X-16.828 Y-15.696
X-16.687 Y-15.861
X-16.685 Y-15.863
X-16.521 Y-16.003
X-16.519 Y-16.004
X-16.333 Y-16.118
X-16.131 Y-16.202
X-16.129 Y-16.203
X-15.919 Y-16.253
X-15.917
X-15.725 Y-16.268
X-15.656 Y-16.271
X-5.45
X-5.381
X-5.372 Y-16.272
X-5.363 Y-16.273
X-5.354 Y-16.275
X-5.346 Y-16.279
X-5.341 Y-16.28
X-5.337 Y-16.283
X-5.333 Y-16.285
X-5.328 Y-16.288
X-5.324 Y-16.291
X-5.32 Y-16.294
X-5.315 Y-16.298
X-5.311 Y-16.302
X-5.307 Y-16.306
X-5.304 Y-16.311
X-5.3 Y-16.315
X-5.298 Y-16.319
X-5.294 Y-16.325
X-5.284 Y-16.332
X-5.272 Y-16.328
X-5.267 Y-16.317
X-5.262 Y-15.103
X-5.266 Y-15.093
X-5.276 Y-15.088
X-5.882 Y-15.079
X-5.89
X-5.898 Y-15.078
X-5.906 Y-15.077
X-5.914 Y-15.075
X-5.922 Y-15.073
X-5.93 Y-15.069
X-5.936 Y-15.066
X-5.94 Y-15.063
X-5.945 Y-15.06
X-5.949 Y-15.057
X-5.954 Y-15.053
X-5.959 Y-15.048
X-5.964 Y-15.043
X-5.968 Y-15.038
X-5.972 Y-15.033
X-5.974 Y-15.029
X-5.976 Y-15.025
X-5.98 Y-15.016
X-5.983 Y-15.008
X-5.986 Y-15
X-5.987 Y-14.991
X-5.988 Y-14.982
Y-14.965
X-5.986 Y-14.826
Y-14.817
X-5.984 Y-14.809
X-5.982 Y-14.8
X-5.98 Y-14.791
X-5.977 Y-14.785
X-5.974 Y-14.778
X-5.97 Y-14.772
X-5.965 Y-14.766
X-5.962 Y-14.762
X-5.959 Y-14.758
X-5.955 Y-14.754
X-5.95 Y-14.75
X-5.943 Y-14.744
X-5.936 Y-14.74
X-5.932 Y-14.737
X-5.927 Y-14.735
X-5.923 Y-14.733
X-5.919 Y-14.731
X-5.91 Y-14.729
X-5.901 Y-14.727
X-5.893 Y-14.726
X-5.884 Y-14.725
X-5.811 Y-14.722
X-5.797 Y-14.721
X-5.728 Y-14.715
X-5.658 Y-14.706
X-5.63 Y-14.702
X-5.624 Y-14.7
X-5.595 Y-14.691
X-5.593 Y-14.689
X-5.563 Y-14.667
X-5.561 Y-14.666
X-5.541 Y-14.642
X-5.54 Y-14.64
X-5.528 Y-14.611
Y-14.609
X-5.522 Y-14.559
Y-14.557
X-5.497 Y-12.875
X-5.498 Y-12.873
X-6.357 Y-14.93
X-6.372 Y-14.965
X-6.374 Y-14.969
X-6.377 Y-14.974
X-6.379 Y-14.978
X-6.382 Y-14.982
X-6.386 Y-14.987
X-6.39 Y-14.991
X-6.395 Y-14.996
X-6.399 Y-15
X-6.405 Y-15.004
X-6.411 Y-15.008
X-6.416 Y-15.011
X-6.422 Y-15.014
X-6.431 Y-15.017
X-6.439 Y-15.02
X-6.448 Y-15.021
X-6.457 Y-15.022
X-6.491
X-6.561 Y-15.021
X-6.578
X-6.587 Y-15.02
X-6.595 Y-15.018
X-6.604 Y-15.015
X-6.609 Y-15.013
X-6.613 Y-15.011
X-6.617 Y-15.009
X-6.622 Y-15.006
X-6.626 Y-15.004
X-6.63 Y-15.001
X-6.631 Y-15
X-6.636 Y-14.996
X-6.64 Y-14.992
X-6.645 Y-14.987
X-6.649 Y-14.982
X-6.652 Y-14.978
X-6.655 Y-14.974
X-6.658 Y-14.969
X-6.66 Y-14.965
X-6.662 Y-14.961
X-6.664 Y-14.956
X-6.667 Y-14.948
X-7.421 Y-12.834
X-7.423 Y-12.836
X-7.442 Y-14.097
X-7.441 Y-14.166
X-7.44 Y-14.236
X-7.437 Y-14.305
X-7.431 Y-14.375
X-7.421 Y-14.444
X-7.418 Y-14.464
X-7.417 Y-14.466
X-7.403 Y-14.515
Y-14.517
X-7.387 Y-14.555
X-7.386 Y-14.556
X-7.37 Y-14.583
X-7.369 Y-14.585
X-7.352 Y-14.604
X-7.35 Y-14.605
X-7.337 Y-14.615
X-7.336 Y-14.616
X-7.309 Y-14.63
X-7.307 Y-14.631
X-7.29 Y-14.638
X-7.255 Y-14.651
X-7.251 Y-14.653
X-7.186 Y-14.673
X-7.116 Y-14.692
X-7.081 Y-14.7
X-7.047 Y-14.707
X-7.034 Y-14.709
X-7.027 Y-14.71
X-7.021 Y-14.711
X-7.014 Y-14.713
X-7.008 Y-14.716
X-7.001 Y-14.718
X-6.995 Y-14.722
X-6.99 Y-14.725
X-6.986 Y-14.728
X-6.982 Y-14.731
X-6.977 Y-14.735
X-6.974 Y-14.738
X-6.97 Y-14.742
X-6.964 Y-14.749
X-6.959 Y-14.756
X-6.955 Y-14.763
X-6.952 Y-14.77
X-6.949 Y-14.777
X-6.947 Y-14.784
X-6.945 Y-14.791
X-6.944 Y-14.8
X-6.943 Y-14.809
X-6.944 Y-14.826
X-6.945 Y-14.93
X-6.946 Y-14.965
X-6.947 Y-14.974
X-6.948 Y-14.982
X-6.951 Y-14.991
X-6.954 Y-15
X-6.958 Y-15.008
X-6.961 Y-15.012
X-6.963 Y-15.017
X-6.966 Y-15.021
X-6.97 Y-15.025
X-6.973 Y-15.029
X-6.977 Y-15.033
X-6.982 Y-15.037
X-6.986 Y-15.041
X-6.99 Y-15.044
X-6.995 Y-15.047
X-6.999 Y-15.049
X-7.003 Y-15.052
X-7.008 Y-15.054
X-7.012 Y-15.055
X-7.021 Y-15.058
X-7.029 Y-15.06
X-7.038 Y-15.061
X-7.047 Y-15.062
X-7.116 Y-15.061
X-8.244 Y-15.044
X-8.253
X-8.262 Y-15.043
X-8.27 Y-15.041
X-8.279 Y-15.038
X-8.283 Y-15.036
X-8.288 Y-15.034
X-8.292 Y-15.032
X-8.296 Y-15.029
X-8.3 Y-15.027
X-8.304 Y-15.024
X-8.308 Y-15.021
X-8.312 Y-15.018
X-8.317 Y-15.013
X-8.321 Y-15.009
X-8.325 Y-15.004
X-8.328 Y-15
X-8.331 Y-14.995
X-8.333 Y-14.991
X-8.336 Y-14.987
X-8.338 Y-14.982
X-8.341 Y-14.974
X-8.343 Y-14.965
X-8.345 Y-14.956
X-8.346 Y-14.948
Y-14.93
X-8.344 Y-14.791
X-8.343 Y-14.783
X-8.342 Y-14.774
X-8.34 Y-14.765
X-8.337 Y-14.757
X-8.335 Y-14.752
X-8.333 Y-14.748
X-8.331 Y-14.744
X-8.329 Y-14.739
X-8.326 Y-14.735
X-8.323 Y-14.731
X-8.319 Y-14.726
X-8.315 Y-14.722
X-8.311 Y-14.717
X-8.306 Y-14.713
X-8.301 Y-14.71
X-8.296 Y-14.707
X-8.292 Y-14.704
X-8.288 Y-14.702
X-8.283 Y-14.699
X-8.279 Y-14.698
X-8.27 Y-14.695
X-8.262 Y-14.692
X-8.227 Y-14.687
X-8.067 Y-14.664
X-8.065
X-7.993 Y-14.642
X-7.991 Y-14.641
X-7.952 Y-14.619
X-7.949 Y-14.618
X-7.911 Y-14.572
X-7.91 Y-14.57
X-7.88 Y-14.493
Y-14.491
X-7.871 Y-14.444
X-7.863 Y-14.375
X-7.857 Y-14.305
X-7.854 Y-14.236
X-7.852 Y-14.166
X-7.85 Y-14.097
X-7.828 Y-12.639
X-7.83 Y-12.569
X-7.833 Y-12.5
Y-12.498
X-7.85 Y-12.424
X-7.851 Y-12.422
X-7.877 Y-12.369
X-7.878 Y-12.367
X-7.91 Y-12.329
X-7.911 Y-12.327
X-7.961 Y-12.292
X-7.963 Y-12.291
X-8.03 Y-12.264
X-8.032 Y-12.263
X-8.108 Y-12.245
X-8.11 Y-12.244
X-8.192 Y-12.234
X-8.201 Y-12.233
X-8.21 Y-12.231
X-8.218 Y-12.228
X-8.223 Y-12.227
X-8.227 Y-12.225
X-8.232 Y-12.222
X-8.237 Y-12.219
X-8.241 Y-12.216
X-8.246 Y-12.213
X-8.251 Y-12.209
X-8.256 Y-12.203
X-8.261 Y-12.198
X-8.266 Y-12.193
X-8.269 Y-12.187
X-8.272 Y-12.183
X-8.274 Y-12.179
X-8.276 Y-12.174
X-8.278 Y-12.17
X-8.281 Y-12.161
X-8.284 Y-12.153
X-8.285 Y-12.144
X-8.286 Y-12.135
Y-12.118
X-8.284 Y-12.014
X-8.283 Y-11.979
Y-11.97
X-8.281 Y-11.962
X-8.279 Y-11.953
X-8.276 Y-11.944
X-8.273 Y-11.938
X-8.269 Y-11.931
X-8.265 Y-11.924
X-8.26 Y-11.918
X-8.256 Y-11.914
X-8.252 Y-11.909
X-8.248 Y-11.905
X-8.243 Y-11.902
X-8.239 Y-11.899
X-8.235 Y-11.896
X-8.231 Y-11.894
X-8.227 Y-11.892
X-8.223 Y-11.89
X-8.218 Y-11.888
X-8.21 Y-11.885
X-8.201 Y-11.883
X-8.192 Y-11.881
X-8.184
X-8.175
X-7.186 Y-11.895
X-7.168 Y-11.896
X-7.16
X-7.151 Y-11.898
X-7.142 Y-11.9
X-7.134 Y-11.903
X-7.129 Y-11.905
X-7.125 Y-11.907
X-7.121 Y-11.909
X-7.116 Y-11.912
X-7.111 Y-11.915
X-7.106 Y-11.919
X-7.102 Y-11.923
X-7.097 Y-11.928
X-7.093 Y-11.932
X-7.09 Y-11.936
X-7.087 Y-11.94
X-7.084 Y-11.944
X-7.082 Y-11.949
X-7.08 Y-11.953
X-7.078 Y-11.957
X-7.076 Y-11.962
X-7.069 Y-11.979
X-6.352 Y-13.944
X-6.351 Y-13.943
X-5.708 Y-12.361
X-5.684 Y-12.291
X-5.638 Y-12.153
X-5.62 Y-12.083
X-5.606 Y-12.014
X-5.604 Y-12.002
X-5.603 Y-11.996
X-5.601 Y-11.99
X-5.598 Y-11.984
X-5.596 Y-11.978
X-5.593 Y-11.972
X-5.589 Y-11.966
X-5.585 Y-11.96
X-5.58 Y-11.955
X-5.575 Y-11.949
X-5.569 Y-11.944
X-5.563 Y-11.939
X-5.557 Y-11.935
X-5.551 Y-11.932
X-5.544 Y-11.929
X-5.538 Y-11.926
X-5.532 Y-11.924
X-5.526 Y-11.923
X-5.519 Y-11.921
X-5.511
X-5.502 Y-11.92
X-4.547 Y-11.934
X-4.534 Y-11.935
X-4.528
X-4.521 Y-11.936
X-4.515 Y-11.937
X-4.508 Y-11.939
X-4.502 Y-11.941
X-4.495 Y-11.944
X-4.491 Y-11.946
X-4.487 Y-11.949
X-4.482 Y-11.951
X-4.478 Y-11.954
X-4.474 Y-11.958
X-4.47 Y-11.961
X-4.466 Y-11.965
X-4.462 Y-11.969
X-4.459 Y-11.973
X-4.456 Y-11.977
X-4.451 Y-11.984
X-4.447 Y-11.991
X-4.443 Y-11.999
X-4.441 Y-12.006
X-4.439 Y-12.014
X-4.437 Y-12.022
X-4.436 Y-12.031
Y-12.048
X-4.438 Y-12.187
Y-12.196
X-4.44 Y-12.205
X-4.442 Y-12.213
X-4.445 Y-12.222
X-4.447 Y-12.228
X-4.45 Y-12.233
X-4.453 Y-12.239
X-4.456 Y-12.245
X-4.461 Y-12.25
X-4.466 Y-12.256
X-4.472 Y-12.262
X-4.478 Y-12.267
X-4.482 Y-12.27
X-4.487 Y-12.273
X-4.491 Y-12.276
X-4.495 Y-12.278
X-4.5 Y-12.28
X-4.504 Y-12.282
X-4.513 Y-12.285
X-4.521 Y-12.287
X-4.53 Y-12.288
X-4.547 Y-12.289
X-4.576 Y-12.291
X-4.617 Y-12.296
X-4.686 Y-12.306
X-4.756 Y-12.32
X-4.784 Y-12.328
X-4.786 Y-12.329
X-4.813 Y-12.343
X-4.815 Y-12.345
X-4.827 Y-12.361
X-4.828 Y-12.363
X-4.839 Y-12.396
Y-12.398
X-4.844 Y-12.445
Y-12.448
X-4.876 Y-14.568
Y-14.57
X-4.872 Y-14.62
X-4.871 Y-14.622
X-4.863 Y-14.646
Y-14.648
X-4.848 Y-14.667
X-4.847 Y-14.669
X-4.812 Y-14.693
X-4.81 Y-14.695
X-4.78 Y-14.707
X-4.777 Y-14.708
X-4.718 Y-14.722
X-4.686 Y-14.728
X-4.617 Y-14.74
X-4.565 Y-14.745
X-4.556 Y-14.747
X-4.547 Y-14.749
X-4.54 Y-14.751
X-4.533 Y-14.754
X-4.526 Y-14.758
X-4.519 Y-14.762
X-4.514 Y-14.765
X-4.51 Y-14.769
X-4.506 Y-14.773
X-4.501 Y-14.777
X-4.498 Y-14.78
X-4.495 Y-14.784
X-4.49 Y-14.791
X-4.486 Y-14.798
X-4.483 Y-14.804
X-4.48 Y-14.81
X-4.478 Y-14.817
X-4.476 Y-14.822
X-4.475 Y-14.828
X-4.474 Y-14.833
Y-14.839
X-4.473 Y-14.844
Y-14.85
X-4.474 Y-14.93
X-4.475 Y-15
X-4.476 Y-15.009
X-4.477 Y-15.014
X-4.478 Y-15.018
X-4.48 Y-15.025
X-4.482 Y-15.031
X-4.484 Y-15.037
X-4.487 Y-15.044
X-4.491 Y-15.05
X-4.495 Y-15.056
X-4.5 Y-15.063
X-4.506 Y-15.069
X-4.511 Y-15.074
X-4.517 Y-15.078
X-4.522 Y-15.082
X-4.527 Y-15.085
X-4.532 Y-15.088
X-4.537 Y-15.09
X-4.542 Y-15.092
X-4.547 Y-15.094
X-4.556 Y-15.096
X-4.565 Y-15.098
X-4.573 Y-15.099
X-4.582
X-5.276 Y-15.088
X-5.287 Y-15.093
X-5.291 Y-15.103
G0 Z5
X-8.454 Y-14.009
Z2
G1 Z-0.1 F1000
X-8.465 Y-14.01
X-8.472 Y-14.019
X-8.476 Y-14.028
X-8.537 Y-14.166
X-8.541 Y-14.174
X-8.546 Y-14.182
X-8.619 Y-14.305
X-8.624 Y-14.314
X-8.63 Y-14.323
X-8.713 Y-14.434
X-8.721 Y-14.444
X-8.782 Y-14.51
X-8.819 Y-14.549
X-8.827 Y-14.558
X-8.835 Y-14.565
X-8.938 Y-14.653
X-8.945 Y-14.658
X-8.951 Y-14.663
X-9.06 Y-14.737
X-9.078 Y-14.748
X-9.13 Y-14.777
X-9.199 Y-14.816
X-9.268 Y-14.847
X-9.338 Y-14.878
X-9.407 Y-14.903
X-9.489 Y-14.93
X-9.546 Y-14.945
X-9.616 Y-14.963
X-9.685 Y-14.978
X-9.754 Y-14.989
X-9.822 Y-15
X-9.893 Y-15.007
X-9.963 Y-15.013
X-10.032 Y-15.015
X-10.102 Y-15.016
X-10.171
X-11.282 Y-14.999
X-11.351 Y-14.998
X-11.36 Y-14.997
X-11.369 Y-14.996
X-11.377 Y-14.993
X-11.386 Y-14.99
X-11.39 Y-14.988
X-11.395 Y-14.985
X-11.399 Y-14.983
X-11.403 Y-14.98
X-11.408 Y-14.977
X-11.412 Y-14.973
X-11.416 Y-14.969
X-11.421 Y-14.965
X-11.425 Y-14.961
X-11.428 Y-14.956
X-11.431 Y-14.952
X-11.434 Y-14.948
X-11.436 Y-14.943
X-11.438 Y-14.939
X-11.442 Y-14.93
X-11.445 Y-14.922
X-11.446 Y-14.913
X-11.448 Y-14.904
Y-14.896
X-11.447 Y-14.861
X-11.446 Y-14.757
X-11.445 Y-14.739
X-11.444 Y-14.731
X-11.443 Y-14.722
X-11.441 Y-14.717
X-11.439 Y-14.711
X-11.437 Y-14.706
X-11.435 Y-14.701
X-11.432 Y-14.696
X-11.429 Y-14.69
X-11.425 Y-14.685
X-11.421 Y-14.68
X-11.416 Y-14.675
X-11.411 Y-14.67
X-11.407 Y-14.667
X-11.402 Y-14.663
X-11.397 Y-14.66
X-11.393 Y-14.657
X-11.388 Y-14.655
X-11.383 Y-14.653
X-11.375 Y-14.65
X-11.367 Y-14.647
X-11.359 Y-14.646
X-11.351 Y-14.645
X-11.282 Y-14.643
X-11.212 Y-14.637
X-11.143 Y-14.628
X-11.126 Y-14.626
X-11.124 Y-14.625
X-11.1 Y-14.619
X-11.097 Y-14.618
X-11.071 Y-14.602
X-11.055 Y-14.583
X-11.044 Y-14.553
X-11.043 Y-14.551
X-11.038 Y-14.501
Y-14.496
X-11.007 Y-12.43
Y-12.361
X-11.01 Y-12.324
Y-12.322
X-11.019 Y-12.291
X-11.02 Y-12.289
X-11.034 Y-12.269
X-11.035 Y-12.268
X-11.065 Y-12.247
X-11.067
X-11.182 Y-12.207
X-11.184 Y-12.206
X-11.212 Y-12.201
X-11.282 Y-12.19
X-11.299 Y-12.188
X-11.308 Y-12.186
X-11.317 Y-12.184
X-11.325 Y-12.181
X-11.33 Y-12.179
X-11.334 Y-12.177
X-11.338 Y-12.175
X-11.343 Y-12.172
X-11.347 Y-12.169
X-11.351 Y-12.166
X-11.358 Y-12.16
X-11.362 Y-12.156
X-11.365 Y-12.153
X-11.368 Y-12.148
X-11.372 Y-12.144
X-11.374 Y-12.139
X-11.377 Y-12.135
X-11.379 Y-12.131
X-11.381 Y-12.126
X-11.384 Y-12.118
X-11.387 Y-12.109
X-11.389 Y-12.1
Y-12.092
X-11.39 Y-12.083
X-11.388 Y-11.944
X-11.387 Y-11.927
X-11.386 Y-11.918
X-11.383 Y-11.909
X-11.381 Y-11.901
X-11.379 Y-11.896
X-11.377 Y-11.892
X-11.375 Y-11.888
X-11.372 Y-11.883
X-11.369 Y-11.879
X-11.366 Y-11.875
X-11.363 Y-11.871
X-11.359 Y-11.867
X-11.355 Y-11.863
X-11.351 Y-11.859
X-11.347 Y-11.856
X-11.343 Y-11.853
X-11.338 Y-11.85
X-11.334 Y-11.847
X-11.33 Y-11.845
X-11.325 Y-11.843
X-11.317 Y-11.84
X-11.308 Y-11.837
X-11.299 Y-11.836
X-11.291 Y-11.835
X-11.282
X-10.032 Y-11.853
X-9.963 Y-11.855
X-9.893 Y-11.859
X-9.824 Y-11.865
X-9.747 Y-11.875
X-9.685 Y-11.885
X-9.616 Y-11.9
X-9.546 Y-11.916
X-9.452 Y-11.944
X-9.407 Y-11.959
X-9.338 Y-11.985
X-9.271 Y-12.014
X-9.199 Y-12.047
X-9.131 Y-12.083
X-9.13 Y-12.084
X-9.06 Y-12.124
X-8.991 Y-12.171
X-8.958 Y-12.194
X-8.921 Y-12.224
X-8.833 Y-12.298
X-8.83 Y-12.301
X-8.826 Y-12.305
X-8.81 Y-12.321
X-8.774 Y-12.361
X-8.713 Y-12.426
X-8.71 Y-12.43
X-8.66 Y-12.5
X-8.644 Y-12.523
X-8.611 Y-12.569
X-8.574 Y-12.635
X-8.534 Y-12.708
X-8.525 Y-12.725
X-8.518 Y-12.743
X-8.463 Y-12.882
X-8.46 Y-12.89
X-8.457 Y-12.899
X-8.417 Y-13.055
X-8.413 Y-13.073
X-8.41 Y-13.09
X-8.386 Y-13.264
Y-13.272
X-8.385 Y-13.281
X-8.379 Y-13.472
Y-13.481
X-8.38 Y-13.489
X-8.391 Y-13.663
Y-13.672
X-8.393 Y-13.68
X-8.417 Y-13.819
X-8.423 Y-13.854
X-8.433 Y-13.889
X-8.469 Y-14.01
X-8.472 Y-14.019
X-8.471 Y-14.03
X-8.462 Y-14.037
G0 Z5
X-9.157 Y-13.897
Z2
G1 Z-0.1 F1000
X-9.146 Y-13.895
X-9.139 Y-13.885
X-9.13 Y-13.836
X-9.116 Y-13.75
X-9.108 Y-13.68
X-9.102 Y-13.611
X-9.099 Y-13.541
X-9.096 Y-13.472
X-9.097 Y-13.403
X-9.098 Y-13.333
X-9.104 Y-13.264
X-9.111 Y-13.194
X-9.13 Y-13.087
X-9.137 Y-13.055
X-9.155 Y-12.986
X-9.178 Y-12.916
X-9.201 Y-12.851
X-9.202 Y-12.85
X-9.248 Y-12.751
X-9.249 Y-12.749
X-9.304 Y-12.658
X-9.305 Y-12.656
X-9.369 Y-12.571
X-9.37 Y-12.569
X-9.436 Y-12.497
X-9.437 Y-12.496
X-9.51 Y-12.432
X-9.512 Y-12.43
X-9.592 Y-12.374
X-9.594 Y-12.373
X-9.683 Y-12.324
X-9.685 Y-12.323
X-9.779 Y-12.284
X-9.781 Y-12.283
X-9.88 Y-12.255
X-9.882
X-9.989 Y-12.237
X-9.991 Y-12.236
X-10.102 Y-12.229
X-10.171
X-10.24
X-10.31 Y-12.23
X-10.352
X-10.354 Y-12.232
X-10.386 Y-14.375
X-10.383 Y-14.444
X-10.381 Y-14.471
Y-14.473
X-10.368 Y-14.522
X-10.367 Y-14.525
X-10.349 Y-14.556
X-10.348 Y-14.557
X-10.322 Y-14.581
X-10.32 Y-14.582
X-10.282 Y-14.602
X-10.28 Y-14.603
X-10.221 Y-14.621
X-10.219 Y-14.622
X-10.141 Y-14.635
X-10.139
X-10.102 Y-14.637
X-10.032 Y-14.64
X-9.924 Y-14.637
X-9.815 Y-14.623
X-9.813 Y-14.622
X-9.715 Y-14.598
X-9.713 Y-14.597
X-9.623 Y-14.563
X-9.621 Y-14.562
X-9.539 Y-14.519
X-9.537 Y-14.518
X-9.465 Y-14.468
X-9.462 Y-14.466
X-9.397 Y-14.408
X-9.396 Y-14.406
X-9.338 Y-14.34
X-9.336 Y-14.338
X-9.281 Y-14.258
X-9.28 Y-14.255
X-9.234 Y-14.171
X-9.233 Y-14.169
X-9.192 Y-14.074
Y-14.072
X-9.177 Y-14.028
X-9.156 Y-13.958
X-9.14 Y-13.889
X-9.139 Y-13.885
X-9.142 Y-13.874
X-9.151 Y-13.868
G0 Z5
X-11.579 Y-14.011
Z2
G1 Z-0.1 F1000
X-11.59 Y-14.016
X-11.593 Y-14.027
X-11.592 Y-14.045
Y-14.054
X-11.593 Y-14.062
X-11.598 Y-14.149
X-11.599 Y-14.158
X-11.6 Y-14.166
X-11.614 Y-14.253
X-11.616 Y-14.262
X-11.618 Y-14.271
X-11.638 Y-14.342
X-11.643 Y-14.358
X-11.649 Y-14.375
X-11.677 Y-14.444
X-11.679 Y-14.449
X-11.682 Y-14.455
X-11.723 Y-14.531
X-11.728 Y-14.54
X-11.734 Y-14.548
X-11.777 Y-14.611
X-11.782 Y-14.618
X-11.788 Y-14.625
X-11.846 Y-14.692
X-11.85 Y-14.697
X-11.855 Y-14.702
X-11.919 Y-14.763
X-11.926 Y-14.768
X-11.932 Y-14.774
X-11.957 Y-14.791
X-12.086 Y-14.882
X-12.093 Y-14.887
X-12.1 Y-14.891
X-12.115 Y-14.898
X-12.254 Y-14.96
X-12.289 Y-14.975
X-12.297 Y-14.978
X-12.488 Y-15.023
X-12.497 Y-15.025
X-12.532 Y-15.027
X-12.705 Y-15.038
X-12.714
X-12.723
X-12.74 Y-15.037
X-12.913 Y-15.021
X-12.931 Y-15.019
X-12.939 Y-15.017
X-13.122 Y-14.972
X-13.139 Y-14.968
X-13.148 Y-14.965
X-13.156 Y-14.962
X-13.33 Y-14.895
X-13.339 Y-14.891
X-13.347 Y-14.887
X-13.415 Y-14.851
X-13.416 Y-14.852
X-13.456 Y-14.918
X-13.46 Y-14.924
X-13.465 Y-14.93
X-13.469 Y-14.935
X-13.474 Y-14.941
X-13.479 Y-14.945
X-13.484 Y-14.948
X-13.489 Y-14.952
X-13.494 Y-14.955
X-13.499 Y-14.957
X-13.504 Y-14.959
X-13.512 Y-14.963
X-13.521 Y-14.965
X-13.53 Y-14.967
X-13.538 Y-14.968
X-13.573 Y-14.967
X-13.712 Y-14.965
X-13.721
X-13.729 Y-14.964
X-13.738 Y-14.962
X-13.747 Y-14.959
X-13.751 Y-14.957
X-13.755 Y-14.955
X-13.76 Y-14.953
X-13.764 Y-14.951
X-13.768 Y-14.948
X-13.773 Y-14.945
X-13.777 Y-14.941
X-13.781 Y-14.937
X-13.785 Y-14.934
X-13.788 Y-14.93
X-13.792 Y-14.926
X-13.795 Y-14.922
X-13.798 Y-14.917
X-13.801 Y-14.913
X-13.803 Y-14.909
X-13.805 Y-14.904
X-13.808 Y-14.896
X-13.811 Y-14.887
X-13.813 Y-14.878
X-13.814 Y-14.87
Y-14.861
X-13.828 Y-13.854
Y-13.845
X-13.827 Y-13.837
X-13.826 Y-13.828
X-13.824 Y-13.819
X-13.821 Y-13.812
X-13.818 Y-13.805
X-13.815 Y-13.798
X-13.81 Y-13.791
X-13.807 Y-13.787
X-13.804 Y-13.782
X-13.8 Y-13.778
X-13.796 Y-13.774
X-13.792 Y-13.771
X-13.789 Y-13.768
X-13.781 Y-13.762
X-13.774 Y-13.758
X-13.768 Y-13.755
X-13.761 Y-13.752
X-13.754 Y-13.75
X-13.748 Y-13.748
X-13.743 Y-13.747
X-13.738
X-13.733 Y-13.746
X-13.712
X-13.556 Y-13.748
X-13.547 Y-13.749
X-13.538 Y-13.75
X-13.53 Y-13.752
X-13.521 Y-13.754
X-13.517 Y-13.756
X-13.512 Y-13.758
X-13.508 Y-13.76
X-13.504 Y-13.763
X-13.496 Y-13.768
X-13.492 Y-13.771
X-13.488 Y-13.774
X-13.484 Y-13.778
X-13.48 Y-13.782
X-13.476 Y-13.787
X-13.473 Y-13.791
X-13.468 Y-13.798
X-13.464 Y-13.805
X-13.461 Y-13.812
X-13.458 Y-13.819
X-13.434 Y-13.899
X-13.417 Y-13.958
X-13.393 Y-14.028
X-13.346 Y-14.148
X-13.345 Y-14.15
X-13.273 Y-14.284
X-13.272 Y-14.286
X-13.182 Y-14.407
X-13.181 Y-14.409
X-13.079 Y-14.508
X-13.077 Y-14.51
X-12.96 Y-14.586
X-12.958
X-12.898 Y-14.613
X-12.896
X-12.831 Y-14.633
X-12.829
X-12.755 Y-14.646
X-12.753
X-12.673 Y-14.651
X-12.553 Y-14.645
X-12.551
X-12.456 Y-14.623
X-12.454 Y-14.622
X-12.378 Y-14.588
X-12.376 Y-14.587
X-12.319 Y-14.543
X-12.317 Y-14.541
X-12.275 Y-14.488
X-12.273 Y-14.486
X-12.242 Y-14.423
X-12.241 Y-14.42
X-12.221 Y-14.34
X-12.22 Y-14.338
X-12.212 Y-14.242
Y-14.24
X-12.216 Y-14.171
Y-14.169
X-12.23 Y-14.101
X-12.231 Y-14.099
X-12.255 Y-14.034
X-12.256 Y-14.032
X-12.291 Y-13.967
X-12.292 Y-13.965
X-12.335 Y-13.908
X-12.337 Y-13.906
X-12.39 Y-13.855
X-12.393 Y-13.854
X-12.457 Y-13.809
X-12.46 Y-13.808
X-12.532 Y-13.772
X-12.585 Y-13.75
X-12.67 Y-13.715
X-12.74 Y-13.687
X-12.809 Y-13.66
X-12.879 Y-13.632
X-12.948 Y-13.604
X-13.018 Y-13.575
X-13.093 Y-13.541
X-13.156 Y-13.513
X-13.264 Y-13.455
X-13.28 Y-13.447
X-13.295 Y-13.436
X-13.382 Y-13.377
X-13.39 Y-13.371
X-13.399 Y-13.363
X-13.486 Y-13.285
X-13.491 Y-13.281
X-13.496 Y-13.276
X-13.565 Y-13.194
X-13.573 Y-13.185
X-13.578 Y-13.177
X-13.583 Y-13.17
X-13.61 Y-13.125
X-13.642 Y-13.07
X-13.646 Y-13.063
X-13.649 Y-13.055
X-13.687 Y-12.951
X-13.691 Y-12.942
X-13.693 Y-12.934
X-13.697 Y-12.916
X-13.717 Y-12.807
X-13.719 Y-12.8
X-13.72 Y-12.792
X-13.721 Y-12.778
X-13.724 Y-12.708
X-13.727 Y-12.639
X-13.719 Y-12.569
X-13.71 Y-12.5
X-13.706 Y-12.465
X-13.704 Y-12.456
X-13.702 Y-12.448
X-13.696 Y-12.43
X-13.671 Y-12.361
X-13.646 Y-12.291
X-13.642 Y-12.283
X-13.638 Y-12.275
X-13.562 Y-12.153
X-13.551 Y-12.135
X-13.548 Y-12.131
X-13.544 Y-12.127
X-13.536 Y-12.118
X-13.426 Y-12.001
X-13.421 Y-11.997
X-13.417 Y-11.993
X-13.399 Y-11.98
X-13.282 Y-11.896
X-13.275 Y-11.892
X-13.269 Y-11.887
X-13.262 Y-11.884
X-13.255 Y-11.881
X-13.104 Y-11.812
X-13.096 Y-11.808
X-13.087 Y-11.806
X-12.948 Y-11.77
X-12.913 Y-11.761
X-12.905 Y-11.76
X-12.896 Y-11.759
X-12.74 Y-11.748
X-12.723 Y-11.747
X-12.714
X-12.705
X-12.514 Y-11.765
X-12.506 Y-11.767
X-12.497 Y-11.769
X-12.462 Y-11.779
X-12.323 Y-11.819
X-12.315 Y-11.822
X-12.306 Y-11.826
X-12.184 Y-11.881
X-12.15 Y-11.897
X-12.115 Y-11.917
X-12.095 Y-11.929
X-12.094 Y-11.927
X-12.061 Y-11.875
X-12.058 Y-11.87
X-12.054 Y-11.865
X-12.05 Y-11.86
X-12.046 Y-11.855
X-12.041 Y-11.851
X-12.037 Y-11.847
X-12.033 Y-11.844
X-12.028 Y-11.841
X-12.024 Y-11.838
X-12.02 Y-11.836
X-12.015 Y-11.834
X-12.011 Y-11.832
X-12.002 Y-11.829
X-11.994 Y-11.827
X-11.985 Y-11.825
X-11.976 Y-11.824
X-11.907 Y-11.825
X-11.837 Y-11.826
X-11.803 Y-11.827
X-11.794
X-11.785 Y-11.829
X-11.777 Y-11.831
X-11.768 Y-11.834
X-11.762 Y-11.837
X-11.756 Y-11.84
X-11.749 Y-11.843
X-11.743 Y-11.848
X-11.74 Y-11.851
X-11.736 Y-11.854
X-11.732 Y-11.858
X-11.729 Y-11.861
X-11.723 Y-11.868
X-11.718 Y-11.875
X-11.716 Y-11.879
X-11.713 Y-11.883
X-11.711 Y-11.888
X-11.71 Y-11.892
X-11.707 Y-11.901
X-11.704 Y-11.909
X-11.703 Y-11.918
Y-11.927
X-11.702 Y-11.944
X-11.7 Y-12.847
Y-12.916
X-11.701 Y-12.925
X-11.703 Y-12.934
X-11.705 Y-12.942
X-11.708 Y-12.951
X-11.71 Y-12.955
X-11.712 Y-12.96
X-11.715 Y-12.964
X-11.717 Y-12.968
X-11.72 Y-12.973
X-11.724 Y-12.977
X-11.727 Y-12.982
X-11.732 Y-12.986
X-11.736 Y-12.99
X-11.741 Y-12.994
X-11.745 Y-12.997
X-11.75 Y-13
X-11.754 Y-13.002
X-11.759 Y-13.005
X-11.763 Y-13.007
X-11.768 Y-13.009
X-11.777 Y-13.011
X-11.785 Y-13.013
X-11.794 Y-13.014
X-11.803 Y-13.015
X-11.837 Y-13.014
X-11.907 Y-13.013
X-11.976 Y-13.012
X-11.984
X-11.992 Y-13.01
X-12.001 Y-13.008
X-12.009 Y-13.006
X-12.017 Y-13.002
X-12.025 Y-12.998
X-12.029 Y-12.995
X-12.033 Y-12.992
X-12.037 Y-12.989
X-12.041 Y-12.986
X-12.046 Y-12.982
X-12.049 Y-12.978
X-12.053 Y-12.974
X-12.056 Y-12.969
X-12.059 Y-12.965
X-12.061 Y-12.961
X-12.063 Y-12.957
X-12.067 Y-12.949
X-12.07 Y-12.941
X-12.073 Y-12.933
X-12.167 Y-12.621
X-12.168 Y-12.619
X-12.226 Y-12.484
X-12.227 Y-12.483
X-12.298 Y-12.365
X-12.3 Y-12.363
X-12.382 Y-12.271
X-12.384 Y-12.269
X-12.484 Y-12.196
X-12.486 Y-12.195
X-12.536 Y-12.172
X-12.538 Y-12.171
X-12.598 Y-12.152
X-12.6 Y-12.151
X-12.668 Y-12.139
X-12.67
X-12.746 Y-12.134
X-12.749
X-12.824 Y-12.139
X-12.827
X-12.896 Y-12.157
X-12.9 Y-12.159
X-12.959 Y-12.187
X-12.961 Y-12.188
X-13.018 Y-12.23
X-13.02 Y-12.232
X-13.065 Y-12.28
X-13.067 Y-12.282
X-13.099 Y-12.335
X-13.1 Y-12.337
X-13.12 Y-12.396
Y-12.398
X-13.128 Y-12.463
Y-12.465
X-13.124 Y-12.541
Y-12.543
X-13.112 Y-12.608
X-13.111 Y-12.61
X-13.091 Y-12.669
X-13.09 Y-12.671
X-13.062 Y-12.721
X-13.06 Y-12.723
X-13.022 Y-12.771
X-13.02 Y-12.773
X-12.973 Y-12.817
X-12.971 Y-12.818
X-12.913 Y-12.86
X-12.911 Y-12.861
X-12.879 Y-12.879
X-12.809 Y-12.915
X-12.74 Y-12.948
X-12.67 Y-12.979
X-12.601 Y-13.007
X-12.532 Y-13.036
X-12.27 Y-13.145
X-12.262 Y-13.148
X-12.254 Y-13.152
X-12.027 Y-13.273
X-12.019 Y-13.277
X-12.014 Y-13.28
X-12.01 Y-13.283
X-11.907 Y-13.356
X-11.9 Y-13.361
X-11.894 Y-13.366
X-11.881 Y-13.378
X-11.81 Y-13.446
X-11.796 Y-13.459
X-11.791 Y-13.465
X-11.786 Y-13.472
X-11.716 Y-13.568
X-11.706 Y-13.582
X-11.702 Y-13.588
X-11.698 Y-13.595
X-11.691 Y-13.611
X-11.643 Y-13.715
X-11.639 Y-13.724
X-11.637 Y-13.732
X-11.632 Y-13.75
X-11.604 Y-13.871
X-11.602 Y-13.88
X-11.601 Y-13.889
X-11.593 Y-14.027
X-11.588 Y-14.037
X-11.578 Y-14.041
G0 Z5
X-13.826 Y-12.747
Z2
G1 Z-0.1 F1000
X-13.838 Y-12.746
X-13.847 Y-12.753
X-13.851 Y-12.76
X-13.854 Y-12.764
X-13.858 Y-12.769
X-13.862 Y-12.773
X-13.866 Y-12.778
X-13.873 Y-12.783
X-13.88 Y-12.788
X-13.887 Y-12.792
X-13.893 Y-12.795
X-13.9 Y-12.798
X-13.907 Y-12.8
X-13.913 Y-12.802
X-13.92 Y-12.803
X-13.929 Y-12.804
X-13.938
X-14.076 Y-12.802
X-14.085
X-14.094 Y-12.801
X-14.102 Y-12.799
X-14.111 Y-12.797
X-14.12 Y-12.793
X-14.124 Y-12.792
X-14.128 Y-12.789
X-14.133 Y-12.787
X-14.137 Y-12.784
X-14.141 Y-12.781
X-14.146 Y-12.778
X-14.15 Y-12.773
X-14.155 Y-12.769
X-14.159 Y-12.765
X-14.162 Y-12.76
X-14.165 Y-12.756
X-14.168 Y-12.751
X-14.17 Y-12.747
X-14.172 Y-12.743
X-14.174 Y-12.738
X-14.176 Y-12.734
X-14.179 Y-12.725
X-14.201 Y-12.652
X-14.202 Y-12.651
X-14.237 Y-12.565
X-14.238 Y-12.564
X-14.339 Y-12.378
X-14.395 Y-12.298
X-14.397 Y-12.296
X-14.456 Y-12.229
X-14.458 Y-12.227
X-14.508 Y-12.187
X-14.51 Y-12.186
X-14.552 Y-12.17
X-14.554 Y-12.169
X-14.58 Y-12.166
X-14.614 Y-12.163
X-14.684 Y-12.158
X-14.753 Y-12.155
X-14.874 Y-12.15
X-14.889
X-14.892 Y-12.151
X-14.925 Y-14.405
Y-14.407
X-14.921 Y-14.455
X-14.92 Y-14.457
X-14.909 Y-14.487
X-14.908 Y-14.49
X-14.892 Y-14.51
X-14.89 Y-14.512
X-14.855 Y-14.534
X-14.853 Y-14.535
X-14.847 Y-14.537
X-14.839 Y-14.54
X-14.823 Y-14.544
X-14.753 Y-14.562
X-14.684 Y-14.576
X-14.65 Y-14.583
X-14.614 Y-14.589
X-14.545 Y-14.597
X-14.536 Y-14.599
X-14.528 Y-14.601
X-14.519 Y-14.604
X-14.515 Y-14.606
X-14.51 Y-14.608
X-14.506 Y-14.61
X-14.502 Y-14.613
X-14.497 Y-14.616
X-14.493 Y-14.619
X-14.488 Y-14.623
X-14.483 Y-14.628
X-14.479 Y-14.632
X-14.476 Y-14.637
X-14.473 Y-14.641
X-14.47 Y-14.645
X-14.465 Y-14.653
X-14.463 Y-14.657
X-14.461 Y-14.661
X-14.458 Y-14.67
X-14.456 Y-14.679
X-14.455 Y-14.687
X-14.454 Y-14.696
Y-14.705
X-14.456 Y-14.844
Y-14.852
X-14.457 Y-14.861
X-14.458 Y-14.867
X-14.459 Y-14.873
X-14.461 Y-14.878
X-14.463 Y-14.884
X-14.465 Y-14.89
X-14.468 Y-14.896
X-14.472 Y-14.902
X-14.476 Y-14.908
X-14.48 Y-14.913
X-14.485 Y-14.919
X-14.491 Y-14.925
X-14.498 Y-14.93
X-14.504 Y-14.934
X-14.51 Y-14.938
X-14.516 Y-14.941
X-14.521 Y-14.943
X-14.527 Y-14.946
X-14.533 Y-14.947
X-14.539 Y-14.949
X-14.545 Y-14.95
X-14.554
X-14.562 Y-14.951
X-15.951 Y-14.93
X-15.96
X-15.968 Y-14.929
X-15.977 Y-14.928
X-15.986 Y-14.926
X-15.994 Y-14.922
X-15.999 Y-14.921
X-16.003 Y-14.919
X-16.007 Y-14.916
X-16.012 Y-14.914
X-16.016 Y-14.911
X-16.02 Y-14.907
X-16.025 Y-14.903
X-16.03 Y-14.899
X-16.034 Y-14.894
X-16.038 Y-14.89
X-16.043 Y-14.882
X-16.047 Y-14.875
X-16.05 Y-14.868
X-16.053 Y-14.861
X-16.056 Y-14.852
X-16.058 Y-14.844
X-16.059 Y-14.835
Y-14.826
X-16.057 Y-14.687
X-16.056 Y-14.67
X-16.055 Y-14.661
X-16.053 Y-14.653
X-16.051 Y-14.645
X-16.048 Y-14.637
X-16.044 Y-14.628
X-16.041 Y-14.624
X-16.039 Y-14.62
X-16.035 Y-14.616
X-16.031 Y-14.611
X-16.026 Y-14.605
X-16.021 Y-14.601
X-16.016 Y-14.597
X-16.012 Y-14.594
X-16.007 Y-14.591
X-16.003 Y-14.588
X-15.997 Y-14.586
X-15.992 Y-14.583
X-15.984 Y-14.581
X-15.977 Y-14.579
X-15.97 Y-14.577
X-15.963 Y-14.576
X-15.934 Y-14.574
X-15.864 Y-14.569
X-15.795 Y-14.563
X-15.725 Y-14.555
X-15.693 Y-14.551
X-15.691 Y-14.55
X-15.648 Y-14.54
X-15.646 Y-14.539
X-15.613 Y-14.521
X-15.612 Y-14.52
X-15.595 Y-14.502
X-15.594 Y-14.5
X-15.582 Y-14.473
Y-14.471
X-15.576 Y-14.418
X-15.575 Y-14.416
X-15.542 Y-12.142
X-15.543 Y-12.14
X-15.553
X-15.564
X-15.586
X-15.656
X-15.725 Y-12.141
X-15.881 Y-12.15
X-15.883
X-15.922 Y-12.164
X-15.924
X-15.976 Y-12.204
X-15.978 Y-12.206
X-16.038 Y-12.271
X-16.04 Y-12.273
X-16.099 Y-12.351
X-16.1 Y-12.352
X-16.207 Y-12.538
Y-12.54
X-16.22 Y-12.569
X-16.25 Y-12.639
X-16.271 Y-12.699
X-16.274 Y-12.708
X-16.277 Y-12.714
X-16.281 Y-12.72
X-16.284 Y-12.725
X-16.288 Y-12.73
X-16.293 Y-12.735
X-16.298 Y-12.741
X-16.302 Y-12.744
X-16.307 Y-12.748
X-16.311 Y-12.751
X-16.315 Y-12.754
X-16.32 Y-12.756
X-16.324 Y-12.758
X-16.333 Y-12.762
X-16.341 Y-12.764
X-16.35 Y-12.766
X-16.359 Y-12.767
X-16.368 Y-12.768
X-16.385
X-16.489 Y-12.766
X-16.524 Y-12.765
X-16.532 Y-12.764
X-16.541 Y-12.762
X-16.55 Y-12.759
X-16.554 Y-12.758
X-16.558 Y-12.756
X-16.564 Y-12.752
X-16.57 Y-12.749
X-16.576 Y-12.745
X-16.582 Y-12.74
X-16.586 Y-12.736
X-16.59 Y-12.732
X-16.594 Y-12.728
X-16.597 Y-12.724
X-16.6 Y-12.72
X-16.602 Y-12.716
X-16.606 Y-12.708
X-16.608 Y-12.704
X-16.61 Y-12.699
X-16.613 Y-12.691
X-16.615 Y-12.682
X-16.616 Y-12.673
X-16.617 Y-12.665
Y-12.656
X-16.605 Y-11.875
Y-11.857
X-16.604 Y-11.849
X-16.603 Y-11.84
X-16.601 Y-11.831
X-16.598 Y-11.823
X-16.596 Y-11.818
X-16.594 Y-11.814
X-16.592 Y-11.81
X-16.589 Y-11.805
X-16.587 Y-11.801
X-16.584 Y-11.797
X-16.581 Y-11.794
X-16.577 Y-11.79
X-16.572 Y-11.785
X-16.568 Y-11.781
X-16.563 Y-11.777
X-16.558 Y-11.774
X-16.554 Y-11.771
X-16.55 Y-11.769
X-16.545 Y-11.767
X-16.541 Y-11.765
X-16.532 Y-11.762
X-16.524 Y-11.759
X-16.515 Y-11.758
X-16.506 Y-11.757
X-16.489
X-13.99 Y-11.794
X-13.92 Y-11.795
X-13.915 Y-11.796
X-13.91
X-13.905 Y-11.797
X-13.9 Y-11.798
X-13.895 Y-11.799
X-13.889 Y-11.801
X-13.884 Y-11.803
X-13.879 Y-11.805
X-13.872 Y-11.809
X-13.865 Y-11.814
X-13.858 Y-11.819
X-13.854 Y-11.822
X-13.851 Y-11.825
X-13.845 Y-11.832
X-13.84 Y-11.838
X-13.836 Y-11.844
X-13.832 Y-11.85
X-13.829 Y-11.856
X-13.827 Y-11.862
X-13.825 Y-11.869
X-13.823 Y-11.875
X-13.821 Y-11.883
Y-11.892
Y-11.909
X-13.831 Y-12.639
X-13.833 Y-12.708
Y-12.715
X-13.834 Y-12.721
X-13.836 Y-12.727
X-13.838 Y-12.734
X-13.84 Y-12.74
X-13.843 Y-12.747
X-13.847 Y-12.753
X-13.848 Y-12.765
X-13.841 Y-12.773
G0 Z5
X-21.289 Y-13.825
Z1.914
G1 Z-0.085 F1000
X-21.293 Y-13.826 Z-0.096
X-21.304 Y-13.827 Z-0.1
X-22.291 Y-13.971
X-22.3 Y-13.977
X-22.303 Y-13.988
X-22.257 Y-14.305
X-22.254 Y-14.323
Y-14.34
X-22.235 Y-14.722
Y-14.739
Y-14.757
X-22.254 Y-15.139
Y-15.147
X-22.255 Y-15.156
X-22.314 Y-15.555
X-22.315 Y-15.564
X-22.317 Y-15.572
X-22.411 Y-15.955
X-22.413 Y-15.963
X-22.416 Y-15.972
X-22.55 Y-16.354
X-22.554 Y-16.363
X-22.695 Y-16.666
X-22.728 Y-16.736
X-22.738 Y-16.753
X-22.932 Y-17.083
X-22.938 Y-17.094
X-22.946 Y-17.105
X-23.154 Y-17.391
X-23.183 Y-17.43
X-23.224 Y-17.477
X-23.454 Y-17.737
X-23.457 Y-17.741
X-23.462 Y-17.745
X-23.75 Y-18.013
X-23.764 Y-18.026
X-23.779 Y-18.037
X-24.088 Y-18.273
X-24.094 Y-18.278
X-24.101 Y-18.282
X-24.44 Y-18.493
X-24.448 Y-18.498
X-24.457 Y-18.502
X-24.751 Y-18.647
X-24.818 Y-18.68
X-24.82 Y-18.681
X-24.89 Y-18.708
X-25.184 Y-18.819
X-25.21 Y-18.829
X-25.237 Y-18.836
X-25.601 Y-18.936
X-25.61 Y-18.938
X-25.619 Y-18.939
X-26.001 Y-19.005
X-26.018 Y-19.007
X-26.035 Y-19.009
X-26.417 Y-19.037
X-26.435 Y-19.038
X-26.452 Y-19.037
X-26.834 Y-19.028
X-26.85
X-26.903 Y-19.021
X-27.25 Y-18.979
X-27.259 Y-18.978
X-27.268 Y-18.976
X-27.598 Y-18.903
X-27.664 Y-18.889
X-27.667 Y-18.888
X-27.736 Y-18.866
X-28.049 Y-18.764
X-28.066 Y-18.758
X-28.086 Y-18.75
X-28.431 Y-18.599
X-28.448 Y-18.591
X-28.5 Y-18.563
X-28.803 Y-18.394
X-28.81 Y-18.39
X-28.817 Y-18.385
X-29.14 Y-18.162
X-29.148 Y-18.157
X-29.156 Y-18.151
X-29.462 Y-17.892
X-29.467 Y-17.888
X-29.472 Y-17.883
X-29.75 Y-17.598
X-29.757 Y-17.591
X-29.763 Y-17.584
X-30.014 Y-17.272
X-30.021 Y-17.262
X-30.097 Y-17.146
X-30.236 Y-16.934
X-30.245 Y-16.919
X-30.254 Y-16.904
X-30.438 Y-16.554
X-30.441 Y-16.546
X-30.444 Y-16.539
X-30.59 Y-16.18
X-30.597 Y-16.163
X-30.602 Y-16.146
X-30.696 Y-15.833
X-30.716 Y-15.764
X-30.722 Y-15.735
X-30.791 Y-15.38
X-30.794 Y-15.363
X-30.796 Y-15.355
X-30.797 Y-15.347
X-30.834 Y-14.965
X-30.835 Y-14.948
X-30.836 Y-14.93
Y-14.548
Y-14.531
X-30.834 Y-14.514
X-30.797 Y-14.132
X-30.795 Y-14.114
X-30.792 Y-14.097
X-30.722 Y-13.737
X-30.716 Y-13.709
X-30.708 Y-13.68
X-30.6 Y-13.318
X-30.598 Y-13.311
X-30.595 Y-13.303
X-30.444 Y-12.933
X-30.441 Y-12.924
X-30.437 Y-12.916
X-30.255 Y-12.569
X-30.246 Y-12.553
X-30.236 Y-12.538
X-30.022 Y-12.211
X-30.019 Y-12.207
X-30.016 Y-12.203
X-29.766 Y-11.892
X-29.759 Y-11.883
X-29.751 Y-11.875
X-29.472 Y-11.589
X-29.468 Y-11.585
X-29.463 Y-11.581
X-29.194 Y-11.354
X-29.153 Y-11.319
X-29.125 Y-11.299
X-28.813 Y-11.084
X-28.808 Y-11.081
X-28.804 Y-11.078
X-28.459 Y-10.887
X-28.445 Y-10.879
X-28.431 Y-10.872
X-28.084 Y-10.721
X-28.066 Y-10.714
X-28.049 Y-10.708
X-27.736 Y-10.606
X-27.667 Y-10.584
X-27.598 Y-10.568
X-27.268 Y-10.495
X-27.259 Y-10.494
X-27.25 Y-10.493
X-26.869 Y-10.446
X-26.851 Y-10.444
X-26.834
X-26.452 Y-10.434
X-26.435
X-26.417 Y-10.435
X-26.035 Y-10.463
X-26.018 Y-10.464
X-26.001 Y-10.467
X-25.619 Y-10.532
X-25.61 Y-10.534
X-25.601 Y-10.536
X-25.22 Y-10.64
X-25.211 Y-10.643
X-25.202 Y-10.645
X-24.89 Y-10.764
X-24.82 Y-10.79
X-24.751 Y-10.824
X-24.453 Y-10.972
X-24.447 Y-10.975
X-24.44 Y-10.979
X-24.101 Y-11.189
X-24.094 Y-11.194
X-24.086 Y-11.2
X-23.779 Y-11.434
X-23.765 Y-11.445
X-23.751 Y-11.458
X-23.465 Y-11.724
X-23.459 Y-11.73
X-23.453 Y-11.736
X-23.192 Y-12.03
X-23.185 Y-12.039
X-23.178 Y-12.047
X-22.946 Y-12.367
X-22.94 Y-12.375
X-22.935 Y-12.383
X-22.738 Y-12.719
X-22.729 Y-12.733
X-22.722 Y-12.748
X-22.555 Y-13.107
X-22.551 Y-13.116
X-22.548 Y-13.125
X-22.426 Y-13.472
X-22.414 Y-13.507
X-22.405 Y-13.541
X-22.32 Y-13.889
X-22.315 Y-13.906
X-22.313 Y-13.923
X-22.303 Y-13.988
X-22.297 Y-13.998
X-22.286 Y-14.001
X-21.301 Y-13.843
X-21.291 Y-13.841 Z-0.096
X-21.287 Y-13.84 Z-0.085
G0 Z5
X-23.718 Y-14.216
Z1.914
G1 Z-0.085 F1000
X-23.714 Z-0.096
X-23.704 Y-14.214 Z-0.1
X-22.718 Y-14.066
X-22.708 Y-14.06
X-22.705 Y-14.049
X-22.718 Y-13.965
Y-13.962
X-22.813 Y-13.589
X-22.814 Y-13.587
X-22.947 Y-13.223
Y-13.221
X-23.115 Y-12.873
X-23.116 Y-12.871
X-23.318 Y-12.541
X-23.319 Y-12.539
X-23.551 Y-12.233
X-23.553 Y-12.231
X-23.816 Y-11.947
X-23.818 Y-11.945
X-24.107 Y-11.69
X-24.109 Y-11.689
X-24.422 Y-11.463
X-24.424 Y-11.462
X-24.759 Y-11.269
X-24.76 Y-11.268
X-25.112 Y-11.109
X-25.114 Y-11.108
X-25.482 Y-10.985
X-25.859 Y-10.899
X-25.862 Y-10.898
X-26.246 Y-10.85
X-26.248
X-26.634 Y-10.84
X-26.636
X-27.02 Y-10.869
X-27.023
X-27.404 Y-10.937
X-27.407
X-27.778 Y-11.042
X-27.78 Y-11.043
X-28.139 Y-11.184
X-28.141
X-28.485 Y-11.361
X-28.487 Y-11.362
X-28.811 Y-11.571
X-28.813 Y-11.572
X-29.115 Y-11.813
X-29.117 Y-11.815
X-29.393 Y-12.085
X-29.395 Y-12.086
X-29.644 Y-12.383
X-29.645 Y-12.385
X-29.863 Y-12.704
X-29.864 Y-12.706
X-30.048 Y-13.045
X-30.049 Y-13.046
X-30.199 Y-13.403
X-30.2 Y-13.405
X-30.314 Y-13.774
Y-13.776
X-30.391 Y-14.153
Y-14.156
X-30.429 Y-14.54
X-30.43 Y-14.542
Y-14.928
Y-14.93
X-30.391 Y-15.317
X-30.39 Y-15.321
X-30.314 Y-15.696
Y-15.698
X-30.2 Y-16.067
X-30.199 Y-16.07
X-30.049 Y-16.426
X-30.048 Y-16.428
X-29.864 Y-16.766
X-29.862 Y-16.768
X-29.644 Y-17.089
X-29.642 Y-17.092
X-29.394 Y-17.386
X-29.116 Y-17.657
X-29.114 Y-17.659
X-28.813 Y-17.899
X-28.811 Y-17.901
X-28.487 Y-18.11
X-28.486 Y-18.111
X-28.142 Y-18.287
X-28.14 Y-18.288
X-27.78 Y-18.429
X-27.778 Y-18.43
X-27.407 Y-18.534
X-27.404 Y-18.535
X-27.023 Y-18.602
X-27.02 Y-18.603
X-26.636 Y-18.631
X-26.634
X-26.248 Y-18.622
X-26.246
X-25.862 Y-18.574
X-25.86 Y-18.573
X-25.482 Y-18.487
X-25.115 Y-18.364
X-25.113 Y-18.363
X-24.762 Y-18.204
X-24.76 Y-18.203
X-24.423 Y-18.009
X-24.108 Y-17.783
X-24.107 Y-17.782
X-23.817 Y-17.526
X-23.815 Y-17.524
X-23.553 Y-17.241
X-23.551 Y-17.239
X-23.319 Y-16.932
X-23.318 Y-16.931
X-23.116 Y-16.601
X-23.115 Y-16.599
X-22.947 Y-16.25
X-22.946 Y-16.248
X-22.814 Y-15.886
Y-15.884
X-22.718 Y-15.51
Y-15.508
X-22.66 Y-15.126
Y-15.123
X-22.641 Y-14.737
Y-14.735
X-22.66 Y-14.349
Y-14.347
X-22.705 Y-14.049
X-22.711 Y-14.039
X-22.722 Y-14.036
X-23.706 Y-14.199
X-23.716 Y-14.201 Z-0.096
X-23.721 Z-0.085
G0 Z5
X-19.159 Y-14.034
Z1.9
G1 Z-0.4 F1000
X-19.169 Y-14.038
X-19.173 Y-14.049
Y-15.525
Y-15.527
X-19.16 Y-15.638
Y-15.64
X-19.127 Y-15.725
X-19.123 Y-15.737
X-19.121 Y-15.74
X-19.064 Y-15.822
X-19.062 Y-15.824
X-18.986 Y-15.892
X-18.984 Y-15.894
X-18.893 Y-15.942
X-18.891
X-18.791 Y-15.967
X-18.789
X-18.687
X-18.685
X-18.585 Y-15.943
X-18.583 Y-15.942
X-18.492 Y-15.894
X-18.489 Y-15.892
X-18.413 Y-15.824
X-18.411 Y-15.822
X-18.353 Y-15.739
X-18.352 Y-15.737
X-18.316 Y-15.64
X-18.315 Y-15.638
X-18.302 Y-15.527
Y-15.525
Y-13.947
Y-13.945
X-18.316 Y-13.832
Y-13.83
X-18.353 Y-13.734
X-18.354 Y-13.732
X-18.412 Y-13.648
X-18.414 Y-13.646
X-18.49 Y-13.579
X-18.492 Y-13.578
X-18.583 Y-13.53
X-18.585 Y-13.529
X-18.685 Y-13.505
X-18.687 Y-13.504
X-18.789
X-18.791 Y-13.505
X-18.89 Y-13.529
X-18.892 Y-13.53
X-18.984 Y-13.578
X-18.986 Y-13.58
X-19.062 Y-13.647
X-19.063 Y-13.648
X-19.121 Y-13.732
X-19.123 Y-13.734
X-19.159 Y-13.83
X-19.16 Y-13.832
X-19.173 Y-13.945
Y-13.947
Y-14.049
X-19.169 Y-14.059
X-19.159 Y-14.064
X-18.923 Y-14.062
X-18.909 Y-14.056
X-18.905 Y-14.041
X-18.914 Y-14.028
X-18.929 Y-14.026
X-18.941 Y-14.037
X-18.94 Y-14.053
X-18.927 Y-14.062
X-18.911 Y-14.057 Z-0.401 F333.3
X-18.905 Y-14.042
X-18.914 Y-14.028 Z-0.402
X-18.931 Y-14.027
X-18.942 Y-14.04 Z-0.403
X-18.937 Y-14.056 Z-0.404
X-18.922 Y-14.062
X-18.908 Y-14.053 Z-0.405
X-18.907 Y-14.036
X-18.919 Y-14.026 Z-0.406
X-18.936 Y-14.03 Z-0.407
X-18.942 Y-14.045
X-18.933 Y-14.06 Z-0.408
X-18.916 Y-14.061
X-18.906 Y-14.048 Z-0.409
X-18.909 Y-14.032 Z-0.41
X-18.925 Y-14.025
X-18.939 Y-14.034 Z-0.411
X-18.941 Y-14.051 Z-0.412
X-18.928 Y-14.062
X-18.912 Y-14.058 Z-0.413
X-18.905 Y-14.043
X-18.913 Y-14.028 Z-0.414
X-18.93 Y-14.026 Z-0.415
X-18.941 Y-14.039
X-18.938 Y-14.055 Z-0.416
X-18.923 Y-14.062
X-18.908 Y-14.054 Z-0.417
X-18.906 Y-14.038 Z-0.418
X-18.918 Y-14.026
X-18.934 Y-14.029 Z-0.419
X-18.942 Y-14.044
X-18.934 Y-14.059 Z-0.42
X-18.918 Y-14.061 Z-0.421
X-18.906 Y-14.05
X-18.908 Y-14.033 Z-0.422
X-18.923 Y-14.025
X-18.938 Y-14.033 Z-0.423
X-18.941 Y-14.049 Z-0.424
X-18.93 Y-14.061
X-18.913 Y-14.059 Z-0.425
X-18.905 Y-14.044
X-18.912 Y-14.029 Z-0.426
X-18.928 Y-14.026 Z-0.427
X-18.941 Y-14.037
X-18.939 Y-14.054 Z-0.428
X-18.924 Y-14.062
X-18.909 Y-14.056 Z-0.429
X-18.906 Y-14.039 Z-0.43
X-18.917 Y-14.027
X-18.933 Y-14.028 Z-0.431
X-18.942 Y-14.042 Z-0.432
X-18.935 Y-14.058
X-18.919 Y-14.062 Z-0.433
X-18.906 Y-14.051
X-18.908 Y-14.034 Z-0.434
X-18.922 Y-14.025 Z-0.435
X-18.937 Y-14.032
X-18.942 Y-14.048 Z-0.436
X-18.931 Y-14.061
X-18.914 Y-14.06 Z-0.437
X-18.905 Y-14.046 Z-0.438
X-18.911 Y-14.03
X-18.927 Y-14.026 Z-0.439
X-18.94 Y-14.036
Y-14.053 Z-0.44
X-18.926 Y-14.062 Z-0.441
X-18.91 Y-14.057
X-18.905 Y-14.041 Z-0.442
X-18.915 Y-14.027
X-18.932 Z-0.443
X-18.942 Y-14.041 Z-0.444
X-18.937 Y-14.057
X-18.921 Y-14.062 Z-0.445
X-18.907 Y-14.052
Y-14.036 Z-0.446
X-18.92 Y-14.026 Z-0.447
X-18.936 Y-14.031
X-18.942 Y-14.046 Z-0.448
X-18.932 Y-14.06
X-18.916 Y-14.061 Z-0.449
X-18.905 Y-14.047 Z-0.45
X-18.91 Y-14.031
X-18.926 Y-14.025 Z-0.451
X-18.94 Y-14.035 Z-0.452
Y-14.051
X-18.927 Y-14.062 Z-0.453
X-18.911 Y-14.058
X-18.905 Y-14.042 Z-0.454
X-18.914 Y-14.028 Z-0.455
X-18.931 Y-14.027
X-18.941 Y-14.04 Z-0.456
X-18.938 Y-14.056
X-18.922 Y-14.062 Z-0.457
X-18.908 Y-14.054 Z-0.458
X-18.906 Y-14.037
X-18.919 Y-14.026 Z-0.459
X-18.935 Y-14.03
X-18.942 Y-14.045 Z-0.46
X-18.934 Y-14.059 Z-0.461
X-18.917 Y-14.061
X-18.906 Y-14.049 Z-0.462
X-18.909 Y-14.032
X-18.924 Y-14.025 Z-0.463
X-18.939 Y-14.033 Z-0.464
X-18.941 Y-14.05
X-18.929 Y-14.062 Z-0.465
X-18.912 Y-14.059
X-18.905 Y-14.043 Z-0.466
X-18.913 Y-14.029 Z-0.467
X-18.929 Y-14.026
X-18.941 Y-14.038 Z-0.468
X-18.938 Y-14.055
X-18.924 Y-14.062 Z-0.469
X-18.909 Y-14.055 Z-0.47
X-18.906 Y-14.038
X-18.918 Y-14.026 Z-0.471
X-18.934 Y-14.029 Z-0.472
X-18.942 Y-14.043
X-18.935 Y-14.059 Z-0.473
X-18.918 Y-14.062
X-18.906 Y-14.05 Z-0.474
X-18.908 Y-14.034 Z-0.475
X-18.923 Y-14.025
X-18.938 Y-14.032 Z-0.476
X-18.941 Y-14.049
X-18.93 Y-14.061 Z-0.477
X-18.913 Y-14.059 Z-0.478
X-18.905 Y-14.045
X-18.912 Y-14.03 Z-0.479
X-18.928 Y-14.026
X-18.941 Y-14.037 Z-0.48
X-18.939 Y-14.054 Z-0.481
X-18.925 Y-14.062
X-18.909 Y-14.056 Z-0.482
X-18.905 Y-14.04
X-18.916 Y-14.027 Z-0.483
X-18.933 Y-14.028 Z-0.484
X-18.942 Y-14.042
X-18.936 Y-14.058 Z-0.485
X-18.92 Y-14.062
X-18.907 Y-14.051 Z-0.486
Y-14.035 Z-0.487
X-18.921 Y-14.025
X-18.937 Y-14.031 Z-0.488
X-18.942 Y-14.047
X-18.931 Y-14.061 Z-0.489
X-18.915 Y-14.06 Z-0.49
X-18.905 Y-14.046
X-18.911 Y-14.031 Z-0.491
X-18.927 Y-14.026 Z-0.492
X-18.94 Y-14.036
Y-14.052 Z-0.493
X-18.926 Y-14.062
X-18.91 Y-14.057 Z-0.494
X-18.905 Y-14.041 Z-0.495
X-18.915 Y-14.027
X-18.932 Z-0.496
X-18.942 Y-14.041
X-18.937 Y-14.057 Z-0.497
X-18.921 Y-14.062 Z-0.498
X-18.907 Y-14.053
Y-14.036 Z-0.499
X-18.92 Y-14.026
X-18.936 Y-14.03 Z-0.5
X-18.942 Y-14.046 Z-0.501
X-18.933 Y-14.06
X-18.916 Y-14.061 Z-0.502
X-18.905 Y-14.048
X-18.91 Y-14.032 Z-0.503
X-18.925 Y-14.025 Z-0.504
X-18.939 Y-14.034
X-18.941 Y-14.051 Z-0.505
X-18.928 Y-14.062
X-18.912 Y-14.058 Z-0.506
X-18.905 Y-14.043 Z-0.507
X-18.914 Y-14.028
X-18.93 Y-14.027 Z-0.508
X-18.941 Y-14.039
X-18.938 Y-14.055 Z-0.509
X-18.923 Y-14.062 Z-0.51
X-18.908 Y-14.054
X-18.906 Y-14.037 Z-0.511
X-18.918 Y-14.026 Z-0.512
X-18.935 Y-14.029
X-18.942 Y-14.044 Z-0.513
X-18.934 Y-14.059
X-18.917 Y-14.061 Z-0.514
X-18.906 Y-14.049 Z-0.515
X-18.909 Y-14.033
X-18.924 Y-14.025 Z-0.516
X-18.939 Y-14.033
X-18.941 Y-14.05 Z-0.517
X-18.929 Y-14.061 Z-0.518
X-18.913 Y-14.059
X-18.905 Y-14.044 Z-0.519
X-18.912 Y-14.029
X-18.929 Y-14.026 Z-0.52
X-18.941 Y-14.038 Z-0.521
X-18.939 Y-14.054
X-18.924 Y-14.062 Z-0.522
X-18.909 Y-14.055
X-18.906 Y-14.039 Z-0.523
X-18.917 Y-14.026 Z-0.524
X-18.934 Y-14.028
X-18.942 Y-14.043 Z-0.525
X-18.935 Y-14.058
X-18.919 Y-14.062 Z-0.526
X-18.906 Y-14.051 Z-0.527
X-18.908 Y-14.034
X-18.922 Y-14.025 Z-0.528
X-18.938 Y-14.032
X-18.941 Y-14.048 Z-0.529
X-18.931 Y-14.061 Z-0.53
X-18.914 Y-14.06
X-18.905 Y-14.045 Z-0.531
X-18.911 Y-14.03 Z-0.532
X-18.927 Y-14.026
X-18.94 Y-14.036 Z-0.533
X-18.939 Y-14.053
X-18.925 Y-14.062 Z-0.534
X-18.91 Y-14.056 Z-0.535
X-18.905 Y-14.04
X-18.916 Y-14.027 Z-0.536
X-18.932 Y-14.028
X-18.942 Y-14.041 Z-0.537
X-18.936 Y-14.057 Z-0.538
X-18.92 Y-14.062
X-18.907 Y-14.052 Z-0.539
Y-14.035
X-18.921 Y-14.026 Z-0.54
X-18.937 Y-14.031 Z-0.541
X-18.942 Y-14.047
X-18.932 Y-14.06 Z-0.542
X-18.915
X-18.905 Y-14.047 Z-0.543
X-18.91 Y-14.031 Z-0.544
X-18.926 Y-14.026
X-18.94 Y-14.035 Z-0.545
Y-14.052
X-18.927 Y-14.062 Z-0.546
X-18.911 Y-14.057 Z-0.547
X-18.905 Y-14.042
X-18.914 Y-14.028 Z-0.548
X-18.931 Y-14.027
X-18.942 Y-14.04 Z-0.549
X-18.937 Y-14.056 Z-0.55
X-18.922 Y-14.062
X-18.908 Y-14.053 Z-0.551
X-18.906 Y-14.036 Z-0.552
X-18.919 Y-14.026
X-18.936 Y-14.03 Z-0.553
X-18.942 Y-14.045
X-18.933 Y-14.06 Z-0.554
X-18.916 Y-14.061 Z-0.555
X-18.906 Y-14.048
X-18.909 Y-14.032 Z-0.556
X-18.925 Y-14.025
X-18.939 Y-14.034 Z-0.557
X-18.941 Y-14.05 Z-0.558
X-18.928 Y-14.062
X-18.912 Y-14.058 Z-0.559
X-18.905 Y-14.043
X-18.913 Y-14.028 Z-0.56
X-18.93 Y-14.026 Z-0.561
X-18.941 Y-14.039
X-18.938 Y-14.055 Z-0.562
X-18.923 Y-14.062
X-18.908 Y-14.054 Z-0.563
X-18.906 Y-14.038 Z-0.564
X-18.918 Y-14.026
X-18.934 Y-14.029 Z-0.565
X-18.942 Y-14.044
X-18.934 Y-14.059 Z-0.566
X-18.918 Y-14.061 Z-0.567
X-18.906 Y-14.05
X-18.908 Y-14.033 Z-0.568
X-18.923 Y-14.025
X-18.938 Y-14.033 Z-0.569
X-18.941 Y-14.049 Z-0.57
X-18.93 Y-14.061
X-18.913 Y-14.059 Z-0.571
X-18.905 Y-14.044 Z-0.572
X-18.912 Y-14.029
X-18.928 Y-14.026 Z-0.573
X-18.941 Y-14.037
X-18.939 Y-14.054 Z-0.574
X-18.925 Y-14.062 Z-0.575
X-18.909 Y-14.056
X-18.906 Y-14.039 Z-0.576
X-18.917 Y-14.027
X-18.933 Y-14.028 Z-0.577
X-18.942 Y-14.042 Z-0.578
X-18.936 Y-14.058
X-18.919 Y-14.062 Z-0.579
X-18.906 Y-14.051
X-18.908 Y-14.034 Z-0.58
X-18.922 Y-14.025 Z-0.581
X-18.937 Y-14.032
X-18.942 Y-14.048 Z-0.582
X-18.931 Y-14.061
X-18.914 Y-14.06 Z-0.583
X-18.905 Y-14.046 Z-0.584
X-18.911 Y-14.03
X-18.927 Y-14.026 Z-0.585
X-18.94 Y-14.036
Y-14.053 Z-0.586
X-18.926 Y-14.062 Z-0.587
X-18.91 Y-14.057
X-18.905 Y-14.041 Z-0.588
X-18.915 Y-14.027
X-18.932 Z-0.589
X-18.942 Y-14.041 Z-0.59
X-18.937 Y-14.057
X-18.921 Y-14.062 Z-0.591
X-18.907 Y-14.052 Z-0.592
Y-14.036
X-18.92 Y-14.026 Z-0.593
X-18.936 Y-14.03
X-18.942 Y-14.046 Z-0.594
X-18.932 Y-14.06 Z-0.595
X-18.916 Y-14.061
X-18.905 Y-14.047 Z-0.596
X-18.91 Y-14.031
X-18.926 Y-14.025 Z-0.597
X-18.94 Y-14.035 Z-0.598
Y-14.051
X-18.927 Y-14.062 Z-0.599
X-18.911 Y-14.058
X-18.905 Y-14.042 Z-0.6
X-18.914 Y-14.028 Z-0.601
X-18.931 Y-14.027
X-18.941 Y-14.04 Z-0.602
X-18.938 Y-14.056
X-18.922 Y-14.062 Z-0.603
X-18.908 Y-14.054 Z-0.604
X-18.906 Y-14.037
X-18.919 Y-14.026 Z-0.605
X-18.935 Y-14.03
X-18.942 Y-14.045 Z-0.606
X-18.934 Y-14.059 Z-0.607
X-18.917 Y-14.061
X-18.906 Y-14.049 Z-0.608
X-18.909 Y-14.032
X-18.924 Y-14.025 Z-0.609
X-18.939 Y-14.033 Z-0.61
X-18.941 Y-14.05
X-18.929 Y-14.062 Z-0.611
X-18.912 Y-14.059 Z-0.612
X-18.905 Y-14.044
X-18.913 Y-14.029 Z-0.613
X-18.929 Y-14.026
X-18.941 Y-14.038 Z-0.614
X-18.938 Y-14.055 Z-0.615
X-18.924 Y-14.062
X-18.909 Y-14.055 Z-0.616
X-18.906 Y-14.038
X-18.917 Y-14.026 Z-0.617
X-18.934 Y-14.029 Z-0.618
X-18.942 Y-14.043
X-18.935 Y-14.058 Z-0.619
X-18.918 Y-14.062
X-18.906 Y-14.05 Z-0.62
X-18.908 Y-14.034 Z-0.621
X-18.923 Y-14.025
X-18.938 Y-14.032 Z-0.622
X-18.941 Y-14.049
X-18.93 Y-14.061 Z-0.623
X-18.914 Y-14.059 Z-0.624
X-18.905 Y-14.045
X-18.912 Y-14.03 Z-0.625
X-18.928 Y-14.026
X-18.941 Y-14.037 Z-0.626
X-18.939 Y-14.053 Z-0.627
X-18.925 Y-14.062
X-18.91 Y-14.056 Z-0.628
X-18.905 Y-14.04
X-18.916 Y-14.027 Z-0.629
X-18.933 Y-14.028 Z-0.63
X-18.942 Y-14.042
X-18.936 Y-14.058 Z-0.631
X-18.92 Y-14.062 Z-0.632
X-18.907 Y-14.052
Y-14.035 Z-0.633
X-18.921 Y-14.025
X-18.937 Y-14.031 Z-0.634
X-18.942 Y-14.047 Z-0.635
X-18.931 Y-14.06
X-18.915 Z-0.636
X-18.905 Y-14.046
X-18.911 Y-14.031 Z-0.637
X-18.927 Y-14.026 Z-0.638
X-18.94 Y-14.035
Y-14.052 Z-0.639
X-18.926 Y-14.062
X-18.911 Y-14.057 Z-0.64
X-18.905 Y-14.041 Z-0.641
X-18.915 Y-14.027
X-18.932 Z-0.642
X-18.942 Y-14.04
X-18.937 Y-14.057 Z-0.643
X-18.921 Y-14.062 Z-0.644
X-18.907 Y-14.053
Y-14.036 Z-0.645
X-18.92 Y-14.026
X-18.936 Y-14.03 Z-0.646
X-18.942 Y-14.046 Z-0.647
X-18.933 Y-14.06
X-18.916 Y-14.061 Z-0.648
X-18.905 Y-14.048
X-18.91 Y-14.032 Z-0.649
X-18.925 Y-14.025 Z-0.65
X-18.939 Y-14.034
X-18.941 Y-14.051 Z-0.651
X-18.928 Y-14.062 Z-0.652
X-18.912 Y-14.058
X-18.905 Y-14.043 Z-0.653
X-18.914 Y-14.028
X-18.93 Y-14.027 Z-0.654
X-18.941 Y-14.039 Z-0.655
X-18.938 Y-14.055
X-18.923 Y-14.062 Z-0.656
X-18.908 Y-14.054
X-18.906 Y-14.037 Z-0.657
X-18.918 Y-14.026 Z-0.658
X-18.935 Y-14.029
X-18.942 Y-14.044 Z-0.659
X-18.934 Y-14.059
X-18.917 Y-14.061 Z-0.66
X-18.906 Y-14.049 Z-0.661
X-18.909 Y-14.033
X-18.924 Y-14.025 Z-0.662
X-18.938 Y-14.033
X-18.941 Y-14.05 Z-0.663
X-18.929 Y-14.061 Z-0.664
X-18.913 Y-14.059
X-18.905 Y-14.044 Z-0.665
X-18.912 Y-14.029
X-18.929 Y-14.026 Z-0.666
X-18.941 Y-14.038 Z-0.667
X-18.939 Y-14.054
X-18.924 Y-14.062 Z-0.668
X-18.909 Y-14.055
X-18.906 Y-14.039 Z-0.669
X-18.917 Y-14.026 Z-0.67
X-18.934 Y-14.028
X-18.942 Y-14.043 Z-0.671
X-18.935 Y-14.058 Z-0.672
X-18.919 Y-14.062
X-18.906 Y-14.051 Z-0.673
X-18.908 Y-14.034
X-18.922 Y-14.025 Z-0.674
X-18.938 Y-14.032 Z-0.675
X-18.941 Y-14.048
X-18.931 Y-14.061 Z-0.676
X-18.914 Y-14.06
X-18.905 Y-14.045 Z-0.677
X-18.911 Y-14.03 Z-0.678
X-18.927 Y-14.026
X-18.94 Y-14.036 Z-0.679
Y-14.053
X-18.926 Y-14.062 Z-0.68
X-18.91 Y-14.056 Z-0.681
X-18.905 Y-14.04
X-18.916 Y-14.027 Z-0.682
X-18.932 Y-14.028
X-18.942 Y-14.041 Z-0.683
X-18.936 Y-14.057 Z-0.684
X-18.92 Y-14.062
X-18.907 Y-14.052 Z-0.685
Y-14.035
X-18.921 Y-14.026 Z-0.686
X-18.937 Y-14.031 Z-0.687
X-18.942 Y-14.047
X-18.932 Y-14.06 Z-0.688
X-18.915
X-18.905 Y-14.047 Z-0.689
X-18.91 Y-14.031 Z-0.69
X-18.926 Y-14.025
X-18.94 Y-14.035 Z-0.691
Y-14.052 Z-0.692
X-18.927 Y-14.062
X-18.911 Y-14.057 Z-0.693
X-18.905 Y-14.042
X-18.914 Y-14.028 Z-0.694
X-18.931 Y-14.027 Z-0.695
X-18.942 Y-14.04
X-18.937 Y-14.056 Z-0.696
X-18.922 Y-14.062
X-18.908 Y-14.053 Z-0.697
X-18.906 Y-14.037 Z-0.698
X-18.919 Y-14.026
X-18.936 Y-14.03 Z-0.699
X-18.942 Y-14.045
X-18.933 Y-14.06 Z-0.7
X-18.917 Y-14.061 Z-0.701
X-18.906 Y-14.048
X-18.909 Y-14.032 Z-0.702
X-18.925 Y-14.025
X-18.939 Y-14.034 Z-0.703
X-18.941 Y-14.05 Z-0.704
X-18.928 Y-14.062
X-18.912 Y-14.058 Z-0.705
X-18.905 Y-14.043
X-18.913 Y-14.028 Z-0.706
X-18.93 Y-14.026 Z-0.707
X-18.941 Y-14.039
X-18.938 Y-14.055 Z-0.708
X-18.923 Y-14.062
X-18.908 Y-14.054 Z-0.709
X-18.906 Y-14.038 Z-0.71
X-18.918 Y-14.026
X-18.934 Y-14.029 Z-0.711
X-18.942 Y-14.044 Z-0.712
X-18.934 Y-14.059
X-18.918 Y-14.061 Z-0.713
X-18.906 Y-14.05
X-18.908 Y-14.033 Z-0.714
X-18.923 Y-14.025 Z-0.715
X-18.938 Y-14.033
X-18.941 Y-14.049 Z-0.716
X-18.93 Y-14.061
X-18.913 Y-14.059 Z-0.717
X-18.905 Y-14.045 Z-0.718
X-18.912 Y-14.029
X-18.928 Y-14.026 Z-0.719
X-18.941 Y-14.037
X-18.939 Y-14.054 Z-0.72
X-18.925 Y-14.062 Z-0.721
X-18.909 Y-14.056
X-18.906 Y-14.039 Z-0.722
X-18.917 Y-14.027
X-18.933 Y-14.028 Z-0.723
X-18.942 Y-14.042 Z-0.724
X-18.936 Y-14.058
X-18.919 Y-14.062 Z-0.725
X-18.906 Y-14.051
X-18.908 Y-14.034 Z-0.726
X-18.922 Y-14.025 Z-0.727
X-18.937 Y-14.031
X-18.942 Y-14.048 Z-0.728
X-18.931 Y-14.061
X-18.914 Y-14.06 Z-0.729
X-18.905 Y-14.046 Z-0.73
X-18.911 Y-14.03
X-18.927 Y-14.026 Z-0.731
X-18.94 Y-14.036 Z-0.732
Y-14.053
X-18.926 Y-14.062 Z-0.733
X-18.91 Y-14.057
X-18.905 Y-14.041 Z-0.734
X-18.915 Y-14.027 Z-0.735
X-18.932
X-18.942 Y-14.041 Z-0.736
X-18.937 Y-14.057
X-18.921 Y-14.062 Z-0.737
X-18.907 Y-14.052 Z-0.738
Y-14.036
X-18.92 Y-14.026 Z-0.739
X-18.936 Y-14.03
X-18.942 Y-14.046 Z-0.74
X-18.932 Y-14.06 Z-0.741
X-18.916 Y-14.061
X-18.905 Y-14.047 Z-0.742
X-18.91 Y-14.031
X-18.926 Y-14.025 Z-0.743
X-18.94 Y-14.035 Z-0.744
Y-14.051
X-18.927 Y-14.062 Z-0.745
X-18.911 Y-14.058
X-18.905 Y-14.042 Z-0.746
X-18.914 Y-14.028 Z-0.747
X-18.931 Y-14.027
X-18.941 Y-14.04 Z-0.748
X-18.938 Y-14.056
X-18.922 Y-14.062 Z-0.749
X-18.908 Y-14.054 Z-0.75
X-18.906 Y-14.037
X-18.919 Y-14.026 Z-0.751
X-18.935 Y-14.029 Z-0.752
X-18.942 Y-14.045
X-18.934 Y-14.059 Z-0.753
X-18.917 Y-14.061
X-18.906 Y-14.049 Z-0.754
X-18.909 Y-14.032 Z-0.755
X-18.924 Y-14.025
X-18.939 Y-14.033 Z-0.756
X-18.941 Y-14.05
X-18.929 Y-14.062 Z-0.757
X-18.912 Y-14.059 Z-0.758
X-18.905 Y-14.044
X-18.913 Y-14.029 Z-0.759
X-18.929 Y-14.026
X-18.941 Y-14.038 Z-0.76
X-18.938 Y-14.055 Z-0.761
X-18.924 Y-14.062
X-18.909 Y-14.055 Z-0.762
X-18.906 Y-14.038
X-18.917 Y-14.026 Z-0.763
X-18.934 Y-14.029 Z-0.764
X-18.942 Y-14.043
X-18.935 Y-14.058 Z-0.765
X-18.918 Y-14.062
X-18.906 Y-14.05 Z-0.766
X-18.908 Y-14.034 Z-0.767
X-18.923 Y-14.025
X-18.938 Y-14.032 Z-0.768
X-18.941 Y-14.049
X-18.93 Y-14.061 Z-0.769
X-18.914 Y-14.059 Z-0.77
X-18.905 Y-14.045
X-18.912 Y-14.03 Z-0.771
X-18.928 Y-14.026 Z-0.772
X-18.941 Y-14.037
X-18.939 Y-14.053 Z-0.773
X-18.925 Y-14.062
X-18.91 Y-14.056 Z-0.774
X-18.905 Y-14.04 Z-0.775
X-18.916 Y-14.027
X-18.933 Y-14.028 Z-0.776
X-18.942 Y-14.042
X-18.936 Y-14.058 Z-0.777
X-18.92 Y-14.062 Z-0.778
X-18.907 Y-14.052
Y-14.035 Z-0.779
X-18.921 Y-14.025
X-18.937 Y-14.031 Z-0.78
X-18.942 Y-14.047 Z-0.781
X-18.932 Y-14.06
X-18.915 Z-0.782
X-18.905 Y-14.046
X-18.911 Y-14.031 Z-0.783
X-18.926 Y-14.026 Z-0.784
X-18.94 Y-14.035
Y-14.052 Z-0.785
X-18.927 Y-14.062
X-18.911 Y-14.057 Z-0.786
X-18.905 Y-14.041 Z-0.787
X-18.915 Y-14.027
X-18.932 Z-0.788
X-18.942 Y-14.04
X-18.937 Y-14.056 Z-0.789
X-18.921 Y-14.062 Z-0.79
X-18.907 Y-14.053
Y-14.036 Z-0.791
X-18.92 Y-14.026 Z-0.792
X-18.936 Y-14.03
X-18.942 Y-14.046 Z-0.793
X-18.933 Y-14.06
X-18.916 Y-14.061 Z-0.794
X-18.905 Y-14.048 Z-0.795
X-18.91 Y-14.032
X-18.925 Y-14.025 Z-0.796
X-18.939 Y-14.034
X-18.941 Y-14.051 Z-0.797
X-18.928 Y-14.062 Z-0.798
X-18.912 Y-14.058
X-18.905 Y-14.043 Z-0.799
X-18.914 Y-14.028
X-18.93 Y-14.027 Z-0.8
X-18.941 Y-14.039 Z-0.801
X-18.938 Y-14.055
X-18.923 Y-14.062 Z-0.802
X-18.908 Y-14.054
X-18.906 Y-14.037 Z-0.803
X-18.918 Y-14.026 Z-0.804
X-18.935 Y-14.029
X-18.942 Y-14.044 Z-0.805
X-18.934 Y-14.059
X-18.917 Y-14.061 Z-0.806
X-18.906 Y-14.049 Z-0.807
X-18.909 Y-14.033
X-18.924 Y-14.025 Z-0.808
X-18.938 Y-14.033
X-18.941 Y-14.049 Z-0.809
X-18.929 Y-14.061 Z-0.81
X-18.913 Y-14.059
X-18.905 Y-14.044 Z-0.811
X-18.912 Y-14.029 Z-0.812
X-18.929 Y-14.026
X-18.941 Y-14.038 Z-0.813
X-18.939 Y-14.054
X-18.924 Y-14.062 Z-0.814
X-18.909 Y-14.055 Z-0.815
X-18.906 Y-14.039
X-18.917 Y-14.027 Z-0.816
X-18.934 Y-14.028
X-18.942 Y-14.043 Z-0.817
X-18.935 Y-14.058 Z-0.818
X-18.919 Y-14.062
X-18.906 Y-14.051 Z-0.819
X-18.908 Y-14.034
X-18.922 Y-14.025 Z-0.82
X-18.938 Y-14.032 Z-0.821
X-18.941 Y-14.048
X-18.931 Y-14.061 Z-0.822
X-18.914 Y-14.06
X-18.905 Y-14.046 Z-0.823
X-18.911 Y-14.03 Z-0.824
X-18.927 Y-14.026
X-18.94 Y-14.036 Z-0.825
Y-14.053
X-18.926 Y-14.062 Z-0.826
X-18.91 Y-14.056 Z-0.827
X-18.905 Y-14.04
X-18.916 Y-14.027 Z-0.828
X-18.932 Y-14.028
X-18.942 Y-14.041 Z-0.829
X-18.936 Y-14.057 Z-0.83
X-18.92 Y-14.062
X-18.907 Y-14.052 Z-0.831
Y-14.035 Z-0.832
X-18.921 Y-14.026
X-18.937 Y-14.031 Z-0.833
X-18.942 Y-14.047
X-18.932 Y-14.06 Z-0.834
X-18.915 Z-0.835
X-18.905 Y-14.047
X-18.91 Y-14.031 Z-0.836
X-18.926 Y-14.025
X-18.94 Y-14.035 Z-0.837
Y-14.052 Z-0.838
X-18.927 Y-14.062
X-18.911 Y-14.057 Z-0.839
X-18.905 Y-14.042
X-18.914 Y-14.028 Z-0.84
X-18.931 Y-14.027 Z-0.841
X-18.942 Y-14.04
X-18.937 Y-14.056 Z-0.842
X-18.922 Y-14.062
X-18.908 Y-14.053 Z-0.843
X-18.906 Y-14.037 Z-0.844
X-18.919 Y-14.026
X-18.936 Y-14.03 Z-0.845
X-18.942 Y-14.045
X-18.933 Y-14.06 Z-0.846
X-18.917 Y-14.061 Z-0.847
X-18.906 Y-14.048
X-18.909 Y-14.032 Z-0.848
X-18.925 Y-14.025
X-18.939 Y-14.034 Z-0.849
X-18.941 Y-14.05 Z-0.85
X-18.928 Y-14.062
X-18.912 Y-14.058 Z-0.851
X-18.905 Y-14.043 Z-0.852
X-18.913 Y-14.029
X-18.93 Y-14.026 Z-0.853
X-18.941 Y-14.039
X-18.938 Y-14.055 Z-0.854
X-18.923 Y-14.062 Z-0.855
X-18.908 Y-14.054
X-18.906 Y-14.038 Z-0.856
X-18.918 Y-14.026
X-18.934 Y-14.029 Z-0.857
X-18.942 Y-14.044 Z-0.858
X-18.934 Y-14.059
X-18.918 Y-14.061 Z-0.859
X-18.906 Y-14.05
X-18.908 Y-14.033 Z-0.86
X-18.923 Y-14.025 Z-0.861
X-18.938 Y-14.033
X-18.941 Y-14.049 Z-0.862
X-18.93 Y-14.061
X-18.913 Y-14.059 Z-0.863
X-18.905 Y-14.045 Z-0.864
X-18.912 Y-14.029
X-18.928 Y-14.026 Z-0.865
X-18.941 Y-14.037
X-18.939 Y-14.054 Z-0.866
X-18.925 Y-14.062 Z-0.867
X-18.909 Y-14.056
X-18.906 Y-14.039 Z-0.868
X-18.917 Y-14.027
X-18.933 Y-14.028 Z-0.869
X-18.942 Y-14.042 Z-0.87
X-18.936 Y-14.058
X-18.919 Y-14.062 Z-0.871
X-18.906 Y-14.051 Z-0.872
X-18.908 Y-14.034
X-18.922 Y-14.025 Z-0.873
X-18.937 Y-14.031
X-18.942 Y-14.048 Z-0.874
X-18.931 Y-14.061 Z-0.875
X-18.914 Y-14.06
X-18.905 Y-14.046 Z-0.876
X-18.911 Y-14.03
X-18.927 Y-14.026 Z-0.877
X-18.94 Y-14.036 Z-0.878
Y-14.053
X-18.926 Y-14.062 Z-0.879
X-18.91 Y-14.057
X-18.905 Y-14.041 Z-0.88
X-18.915 Y-14.027 Z-0.881
X-18.932
X-18.942 Y-14.041 Z-0.882
X-18.937 Y-14.057
X-18.921 Y-14.062 Z-0.883
X-18.907 Y-14.052 Z-0.884
Y-14.036
X-18.92 Y-14.026 Z-0.885
X-18.936 Y-14.03
X-18.942 Y-14.046 Z-0.886
X-18.932 Y-14.06 Z-0.887
X-18.916 Y-14.061
X-18.905 Y-14.047 Z-0.888
X-18.91 Y-14.031
X-18.925 Y-14.025 Z-0.889
X-18.939 Y-14.035 Z-0.89
X-18.94 Y-14.051
X-18.927 Y-14.062 Z-0.891
X-18.911 Y-14.058 Z-0.892
X-18.905 Y-14.042
X-18.914 Y-14.028 Z-0.893
X-18.931 Y-14.027
X-18.941 Y-14.039 Z-0.894
X-18.938 Y-14.056 Z-0.895
X-18.922 Y-14.062
X-18.908 Y-14.054 Z-0.896
X-18.906 Y-14.037
X-18.919 Y-14.026 Z-0.897
X-18.935 Y-14.029 Z-0.898
X-18.942 Y-14.045
X-18.934 Y-14.059 Z-0.899
X-18.917 Y-14.061
X-18.906 Y-14.049 Z-0.9
X-18.909 Y-14.032 Z-0.901
X-18.924 Y-14.025
X-18.939 Y-14.033 Z-0.902
X-18.941 Y-14.05
X-18.929 Y-14.062 Z-0.903
X-18.912 Y-14.059 Z-0.904
X-18.905 Y-14.044
X-18.913 Y-14.029 Z-0.905
X-18.929 Y-14.026
X-18.941 Y-14.038 Z-0.906
X-18.939 Y-14.055 Z-0.907
X-18.924 Y-14.062
X-18.909 Y-14.055 Z-0.908
X-18.906 Y-14.038
X-18.917 Y-14.026 Z-0.909
X-18.934 Y-14.029 Z-0.91
X-18.942 Y-14.043
X-18.935 Y-14.058 Z-0.911
X-18.918 Y-14.062 Z-0.912
X-18.906 Y-14.05
X-18.908 Y-14.034 Z-0.913
X-18.923 Y-14.025
X-18.938 Y-14.032 Z-0.914
X-18.941 Y-14.049 Z-0.915
X-18.93 Y-14.061
X-18.914 Y-14.059 Z-0.916
X-18.905 Y-14.045
X-18.912 Y-14.03 Z-0.917
X-18.928 Y-14.026 Z-0.918
X-18.941 Y-14.037
X-18.939 Y-14.053 Z-0.919
X-18.925 Y-14.062
X-18.91 Y-14.056 Z-0.92
X-18.905 Y-14.04 Z-0.921
X-18.916 Y-14.027
X-18.933 Y-14.028 Z-0.922
X-18.942 Y-14.042
X-18.936 Y-14.057 Z-0.923
X-18.92 Y-14.062 Z-0.924
X-18.907 Y-14.052
Y-14.035 Z-0.925
X-18.921 Y-14.025
X-18.937 Y-14.031 Z-0.926
X-18.942 Y-14.047 Z-0.927
X-18.932 Y-14.06
X-18.915 Z-0.928
X-18.905 Y-14.047
X-18.91 Y-14.031 Z-0.929
X-18.926 Y-14.026 Z-0.93
X-18.94 Y-14.035
Y-14.052 Z-0.931
X-18.927 Y-14.062 Z-0.932
X-18.911 Y-14.057
X-18.905 Y-14.041 Z-0.933
X-18.915 Y-14.028
X-18.931 Y-14.027 Z-0.934
X-18.942 Y-14.04 Z-0.935
X-18.937 Y-14.056
X-18.921 Y-14.062 Z-0.936
X-18.907 Y-14.053
Y-14.036 Z-0.937
X-18.92 Y-14.026 Z-0.938
X-18.936 Y-14.03
X-18.942 Y-14.046 Z-0.939
X-18.933 Y-14.06
X-18.916 Y-14.061 Z-0.94
X-18.905 Y-14.048 Z-0.941
X-18.909 Y-14.032
X-18.925 Y-14.025 Z-0.942
X-18.939 Y-14.034
X-18.941 Y-14.051 Z-0.943
X-18.928 Y-14.062 Z-0.944
X-18.912 Y-14.058
X-18.905 Y-14.043 Z-0.945
X-18.913 Y-14.028
X-18.93 Y-14.027 Z-0.946
X-18.941 Y-14.039 Z-0.947
X-18.938 Y-14.055
X-18.923 Y-14.062 Z-0.948
X-18.908 Y-14.054
X-18.906 Y-14.038 Z-0.949
X-18.918 Y-14.026 Z-0.95
X-18.935 Y-14.029
X-18.942 Y-14.044 Z-0.951
X-18.934 Y-14.059 Z-0.952
X-18.918 Y-14.061
X-18.906 Y-14.049 Z-0.953
X-18.909 Y-14.033
X-18.924 Y-14.025 Z-0.954
X-18.938 Y-14.033 Z-0.955
X-18.941 Y-14.049
X-18.929 Y-14.061 Z-0.956
X-18.913 Y-14.059
X-18.905 Y-14.044 Z-0.957
X-18.912 Y-14.029 Z-0.958
X-18.929 Y-14.026
X-18.941 Y-14.038 Z-0.959
X-18.939 Y-14.054
X-18.924 Y-14.062 Z-0.96
X-18.909 Y-14.055 Z-0.961
X-18.906 Y-14.039
X-18.917 Y-14.027 Z-0.962
X-18.934 Y-14.028
X-18.942 Y-14.043 Z-0.963
X-18.935 Y-14.058 Z-0.964
X-18.919 Y-14.062
X-18.906 Y-14.051 Z-0.965
X-18.908 Y-14.034
X-18.922 Y-14.025 Z-0.966
X-18.938 Y-14.032 Z-0.967
X-18.941 Y-14.048
X-18.931 Y-14.061 Z-0.968
X-18.914 Y-14.06
X-18.905 Y-14.046 Z-0.969
X-18.911 Y-14.03 Z-0.97
X-18.927 Y-14.026
X-18.94 Y-14.036 Z-0.971
Y-14.053 Z-0.972
X-18.926 Y-14.062
X-18.91 Y-14.056 Z-0.973
X-18.905 Y-14.04
X-18.916 Y-14.027 Z-0.974
X-18.932 Y-14.028 Z-0.975
X-18.942 Y-14.041
X-18.936 Y-14.057 Z-0.976
X-18.92 Y-14.062
X-18.907 Y-14.052 Z-0.977
Y-14.035 Z-0.978
X-18.921 Y-14.026
X-18.937 Y-14.031 Z-0.979
X-18.942 Y-14.047
X-18.932 Y-14.06 Z-0.98
X-18.915 Z-0.981
X-18.905 Y-14.047
X-18.91 Y-14.031 Z-0.982
X-18.926 Y-14.025
X-18.94 Y-14.035 Z-0.983
Y-14.052 Z-0.984
X-18.927 Y-14.062
X-18.911 Y-14.057 Z-0.985
X-18.905 Y-14.042
X-18.914 Y-14.028 Z-0.986
X-18.931 Y-14.027 Z-0.987
X-18.942 Y-14.04
X-18.937 Y-14.056 Z-0.988
X-18.922 Y-14.062
X-18.908 Y-14.053 Z-0.989
X-18.906 Y-14.037 Z-0.99
X-18.919 Y-14.026
X-18.935 Y-14.03 Z-0.991
X-18.942 Y-14.045 Z-0.992
X-18.933 Y-14.06
X-18.917 Y-14.061 Z-0.993
X-18.906 Y-14.048
X-18.909 Y-14.032 Z-0.994
X-18.924 Y-14.025 Z-0.995
X-18.939 Y-14.034
X-18.941 Y-14.05 Z-0.996
X-18.928 Y-14.062
X-18.912 Y-14.058 Z-0.997
X-18.905 Y-14.043 Z-0.998
X-18.913 Y-14.029
X-18.93 Y-14.026 Z-0.999
X-18.941 Y-14.039
X-18.938 Y-14.055 Z-1
X-18.923 Y-14.062 Z-1.001
X-18.908 Y-14.055
X-18.906 Y-14.038 Z-1.002
X-18.918 Y-14.026
X-18.934 Y-14.029 Z-1.003
X-18.942 Y-14.044 Z-1.004
X-18.934 Y-14.059
X-18.918 Y-14.061 Z-1.005
X-18.906 Y-14.05
X-18.908 Y-14.033 Z-1.006
X-18.923 Y-14.025 Z-1.007
X-18.938 Y-14.033
X-18.941 Y-14.049 Z-1.008
X-18.93 Y-14.061
X-18.913 Y-14.059 Z-1.009
X-18.905 Y-14.045 Z-1.01
X-18.912 Y-14.029
X-18.928 Y-14.026 Z-1.011
X-18.941 Y-14.037 Z-1.012
X-18.939 Y-14.054
X-18.925 Y-14.062 Z-1.013
X-18.909 Y-14.056
X-18.906 Y-14.039 Z-1.014
X-18.916 Y-14.027 Z-1.015
X-18.933 Y-14.028
X-18.942 Y-14.042 Z-1.016
X-18.936 Y-14.058
X-18.919 Y-14.062 Z-1.017
X-18.907 Y-14.051 Z-1.018
X-18.908 Y-14.034
X-18.922 Y-14.025 Z-1.019
X-18.937 Y-14.031
X-18.942 Y-14.048 Z-1.02
X-18.931 Y-14.061 Z-1.021
X-18.914 Y-14.06
X-18.905 Y-14.046 Z-1.022
X-18.911 Y-14.03
X-18.927 Y-14.026 Z-1.023
X-18.94 Y-14.036 Z-1.024
Y-14.053
X-18.926 Y-14.062 Z-1.025
X-18.91 Y-14.057
X-18.905 Y-14.041 Z-1.026
X-18.915 Y-14.027 Z-1.027
X-18.932
X-18.942 Y-14.041 Z-1.028
X-18.937 Y-14.057
X-18.921 Y-14.062 Z-1.029
X-18.907 Y-14.052 Z-1.03
Y-14.036
X-18.92 Y-14.026 Z-1.031
X-18.936 Y-14.03 Z-1.032
X-18.942 Y-14.046
X-18.932 Y-14.06 Z-1.033
X-18.916 Y-14.061
X-18.905 Y-14.048 Z-1.034
X-18.91 Y-14.031 Z-1.035
X-18.925 Y-14.025
X-18.939 Y-14.035 Z-1.036
X-18.94 Y-14.051
X-18.928 Y-14.062 Z-1.037
X-18.911 Y-14.058 Z-1.038
X-18.905 Y-14.042
X-18.914 Y-14.028 Z-1.039
X-18.931 Y-14.027
X-18.941 Y-14.039 Z-1.04
X-18.938 Y-14.056 Z-1.041
X-18.922 Y-14.062
X-18.908 Y-14.054 Z-1.042
X-18.906 Y-14.037
X-18.919 Y-14.026 Z-1.043
X-18.935 Y-14.029 Z-1.044
X-18.942 Y-14.045
X-18.934 Y-14.059 Z-1.045
X-18.917 Y-14.061
X-18.906 Y-14.049 Z-1.046
X-18.909 Y-14.032 Z-1.047
X-18.924 Y-14.025
X-18.939 Y-14.033 Z-1.048
X-18.941 Y-14.05
X-18.929 Y-14.062 Z-1.049
X-18.912 Y-14.059 Z-1.05
X-18.905 Y-14.044
X-18.913 Y-14.029 Z-1.051
X-18.929 Y-14.026 Z-1.052
X-18.941 Y-14.038
X-18.939 Y-14.055 Z-1.053
X-18.924 Y-14.062
X-18.909 Y-14.055 Z-1.054
X-18.906 Y-14.038 Z-1.055
X-18.917 Y-14.026
X-18.934 Y-14.029 Z-1.056
X-18.942 Y-14.043
X-18.935 Y-14.058 Z-1.057
X-18.918 Y-14.062 Z-1.058
X-18.906 Y-14.05
X-18.908 Y-14.034 Z-1.059
X-18.923 Y-14.025
X-18.938 Y-14.032 Z-1.06
X-18.941 Y-14.048 Z-1.061
X-18.93 Y-14.061
X-18.914 Y-14.059 Z-1.062
X-18.905 Y-14.045
X-18.912 Y-14.03 Z-1.063
X-18.928 Y-14.026 Z-1.064
X-18.941 Y-14.037
X-18.939 Y-14.053 Z-1.065
X-18.925 Y-14.062
X-18.91 Y-14.056 Z-1.066
X-18.905 Y-14.04 Z-1.067
X-18.916 Y-14.027
X-18.933 Y-14.028 Z-1.068
X-18.942 Y-14.042
X-18.936 Y-14.057 Z-1.069
X-18.92 Y-14.062 Z-1.07
X-18.907 Y-14.052
Y-14.035 Z-1.071
X-18.921 Y-14.025 Z-1.072
X-18.937 Y-14.031
X-18.942 Y-14.047 Z-1.073
X-18.932 Y-14.06
X-18.915 Z-1.074
X-18.905 Y-14.047 Z-1.075
X-18.91 Y-14.031
X-18.926 Y-14.026 Z-1.076
X-18.94 Y-14.035
Y-14.052 Z-1.077
X-18.927 Y-14.062 Z-1.078
X-18.911 Y-14.057
X-18.905 Y-14.041 Z-1.079
X-18.915 Y-14.028
X-18.931 Y-14.027 Z-1.08
X-18.942 Y-14.04 Z-1.081
X-18.937 Y-14.056
X-18.921 Y-14.062 Z-1.082
X-18.907 Y-14.053
Y-14.036 Z-1.083
X-18.92 Y-14.026 Z-1.084
X-18.936 Y-14.03
X-18.942 Y-14.046 Z-1.085
X-18.933 Y-14.06
X-18.916 Y-14.061 Z-1.086
X-18.905 Y-14.048 Z-1.087
X-18.909 Y-14.032
X-18.925 Y-14.025 Z-1.088
X-18.939 Y-14.034
X-18.941 Y-14.051 Z-1.089
X-18.928 Y-14.062 Z-1.09
X-18.912 Y-14.058
X-18.905 Y-14.043 Z-1.091
X-18.913 Y-14.028 Z-1.092
X-18.93 Y-14.027
X-18.941 Y-14.039 Z-1.093
X-18.938 Y-14.055
X-18.923 Y-14.062 Z-1.094
X-18.908 Y-14.054 Z-1.095
X-18.906 Y-14.038
X-18.918 Y-14.026 Z-1.096
X-18.935 Y-14.029
X-18.942 Y-14.044 Z-1.097
X-18.934 Y-14.059 Z-1.098
X-18.918 Y-14.061
X-18.906 Y-14.049 Z-1.099
X-18.909 Y-14.033
X-18.923 Y-14.025 Z-1.1
X-18.936 F1000
X-18.952 Y-14.032
X-18.959 Y-14.049
Y-15.512
Y-15.514
X-18.95 Y-15.588
Y-15.59
X-18.932 Y-15.636
X-18.931 Y-15.638
X-18.902 Y-15.68
X-18.901 Y-15.681
X-18.864 Y-15.715
X-18.861 Y-15.717
X-18.817 Y-15.74
X-18.815 Y-15.741
X-18.765 Y-15.753
X-18.763
X-18.713
X-18.711
X-18.661 Y-15.741
X-18.659 Y-15.74
X-18.613 Y-15.716
X-18.575 Y-15.683
X-18.573 Y-15.681
X-18.544 Y-15.638
X-18.543 Y-15.637
X-18.526 Y-15.59
X-18.525 Y-15.588
X-18.516 Y-15.514
Y-15.512
Y-13.96
Y-13.958
X-18.525 Y-13.884
Y-13.882
X-18.544 Y-13.834
X-18.545 Y-13.832
X-18.573 Y-13.792
X-18.575 Y-13.79
X-18.613 Y-13.756
X-18.615 Y-13.755
X-18.659 Y-13.732
X-18.661 Y-13.731
X-18.711 Y-13.719
X-18.713 Y-13.718
X-18.763
X-18.765 Y-13.719
X-18.815 Y-13.731
X-18.817 Y-13.732
X-18.861 Y-13.755
X-18.864 Y-13.757
X-18.901 Y-13.79
X-18.902 Y-13.792
X-18.93 Y-13.832
X-18.932 Y-13.834
X-18.95 Y-13.882
Y-13.884
X-18.959 Y-13.958
Y-13.96
Y-14.049
X-18.955 Y-14.059
X-18.945 Y-14.064
G0 Z5
X-21.431 Y-7.057
Z2
G1 Z-0.1 F1000
X-21.423 Y-7.066
X-21.412
X-21.302 Y-7.023
X-21.3 Y-7.022
X-21.203 Y-6.952
X-21.201 Y-6.95
X-21.125 Y-6.862
X-21.124 Y-6.859
X-21.071 Y-6.755
X-21.07 Y-6.752
X-21.044 Y-6.636
Y-6.634
X-21.046 Y-6.517
X-21.047 Y-6.514
X-21.078 Y-6.4
X-21.079 Y-6.397
X-21.136 Y-6.295
X-21.137 Y-6.293
X-21.219 Y-6.205
X-21.221 Y-6.204
X-21.321 Y-6.14
X-21.323 Y-6.138
X-21.434 Y-6.097
X-21.436
X-21.555 Y-6.083
X-21.557
X-21.674 Y-6.099
X-21.677 Y-6.1
X-21.785 Y-6.142
X-21.787 Y-6.143
X-21.884 Y-6.212
X-21.886 Y-6.214
X-21.963 Y-6.304
X-21.965 Y-6.306
X-22.017 Y-6.41
X-22.018 Y-6.412
X-22.044 Y-6.529
Y-6.531
X-22.042 Y-6.649
Y-6.651
X-22.01 Y-6.766
X-22.009 Y-6.768
X-21.952 Y-6.871
X-21.951 Y-6.872
X-21.87 Y-6.959
X-21.869 Y-6.96
X-21.767 Y-7.026
X-21.766 Y-7.027
X-21.653 Y-7.069
X-21.651
X-21.533 Y-7.082
X-21.531
X-21.414 Y-7.066
X-21.412
X-21.383 Y-7.053
X-21.354 Y-7.041
X-21.302 Y-7.021
X-21.298 Y-7.018
X-21.287 Y-7.01
X-21.245 Y-6.98
X-21.207 Y-6.953
X-21.203 Y-6.95
X-21.188 Y-6.932 Z-0.101
X-21.154 Y-6.893
X-21.127 Y-6.861
X-21.125 Y-6.857
X-21.112 Y-6.832
X-21.081 Y-6.769 Z-0.102
X-21.074 Y-6.756
X-21.072 Y-6.752
X-21.064 Y-6.716
X-21.047 Y-6.638 Z-0.103
X-21.046 Y-6.633
X-21.047 Y-6.591
X-21.049 Y-6.516 Z-0.104
X-21.05 Y-6.512
X-21.053 Y-6.503
X-21.063 Y-6.467 Z-0.105
X-21.08 Y-6.403
X-21.082 Y-6.399 Z-0.106
X-21.091 Y-6.383
X-21.109 Y-6.351
X-21.138 Y-6.298 Z-0.107
X-21.141 Y-6.295
X-21.163 Y-6.271 Z-0.108
X-21.208 Y-6.223 Z-0.109
X-21.221 Y-6.21
X-21.224 Y-6.207
X-21.236 Y-6.199
X-21.31 Y-6.152 Z-0.111
X-21.321 Y-6.145
X-21.325 Y-6.143
X-21.342 Y-6.137
X-21.434 Y-6.103 Z-0.113
X-21.439 Y-6.102
X-21.461 Y-6.099 Z-0.114
X-21.554 Y-6.09 Z-0.115
X-21.559 Z-0.116
X-21.586 Y-6.094
X-21.669 Y-6.105 Z-0.118
X-21.674 Y-6.106
X-21.708 Y-6.12 Z-0.119
X-21.782 Y-6.149 Z-0.121
X-21.786 Y-6.152
X-21.819 Y-6.175 Z-0.122
X-21.879 Y-6.219 Z-0.123
X-21.882 Y-6.223 Z-0.124
X-21.912 Y-6.257 Z-0.125
X-21.954 Y-6.308 Z-0.126
X-21.957 Y-6.312
X-21.965 Y-6.328 Z-0.127
X-21.996 Y-6.392 Z-0.129
X-22.008 Y-6.416
X-22.01 Y-6.425 Z-0.13
X-22.033 Y-6.529 Z-0.133
Y-6.534
X-22.032 Y-6.547
X-22.029 Y-6.644 Z-0.136
Y-6.649
X-22.023 Y-6.67 Z-0.137
X-21.998 Y-6.759 Z-0.139
X-21.996 Y-6.763 Z-0.14
X-21.983 Y-6.787
X-21.94 Y-6.863 Z-0.143
X-21.937 Y-6.866
X-21.915 Y-6.889 Z-0.144
X-21.861 Y-6.946 Z-0.147
X-21.857 Y-6.949
X-21.824 Y-6.97 Z-0.148
X-21.761 Y-7.009 Z-0.15
X-21.758 Y-7.011 Z-0.151
X-21.717 Y-7.026 Z-0.152
X-21.652 Y-7.05 Z-0.154
X-21.647 Y-7.051
X-21.634 Y-7.052 Z-0.155
X-21.599 Y-7.056 Z-0.156
X-21.534 Y-7.062 Z-0.158
X-21.53 Z-0.159
X-21.478 Y-7.055 Z-0.16
X-21.422 Y-7.047 Z-0.162
X-21.418 Y-7.046
X-21.313 Y-7.003 Z-0.166
X-21.309 Y-7.001 Z-0.167
X-21.222 Y-6.937 Z-0.17
X-21.218 Y-6.935
X-21.204 Y-6.918 Z-0.171
X-21.146 Y-6.849 Z-0.174
X-21.144 Y-6.845 Z-0.175
X-21.132 Y-6.822
X-21.096 Y-6.748 Z-0.178
X-21.095 Y-6.744
X-21.087 Y-6.711 Z-0.18
X-21.071 Y-6.635 Z-0.182
Y-6.63
X-21.072 Y-6.592 Z-0.184
X-21.074 Y-6.523 Z-0.186
Y-6.519
X-21.078 Y-6.506 Z-0.187
X-21.105 Y-6.411 Z-0.19
X-21.107 Y-6.407
X-21.132 Y-6.363 Z-0.192
X-21.161 Y-6.312 Z-0.194
X-21.164 Y-6.309
X-21.237 Y-6.232 Z-0.198
X-21.24 Y-6.229
X-21.251 Y-6.222 Z-0.199
X-21.333 Y-6.171 Z-0.202
X-21.336 Y-6.168
X-21.44 Y-6.131 Z-0.206
X-21.444 Y-6.13
X-21.465 Y-6.128 Z-0.207
X-21.554 Y-6.119 Z-0.21
X-21.558
X-21.582 Y-6.122 Z-0.211
X-21.662 Y-6.134 Z-0.214
X-21.666 Y-6.135
X-21.768 Y-6.176 Z-0.218
X-21.772 Y-6.178
X-21.801 Y-6.2 Z-0.219
X-21.857 Y-6.24 Z-0.222
X-21.86 Y-6.243
X-21.889 Y-6.277 Z-0.223
X-21.93 Y-6.327 Z-0.226
X-21.932 Y-6.33
X-21.978 Y-6.424 Z-0.229
X-21.979 Y-6.428
X-21.991 Y-6.483 Z-0.231
X-22.001 Y-6.531 Z-0.233
X-22.002 Y-6.535
Y-6.547 Z-0.234
X-21.999 Y-6.643 Z-0.237
X-21.998 Y-6.647
X-21.979 Y-6.713 Z-0.24
X-21.969 Y-6.747 Z-0.241
X-21.968 Y-6.751
X-21.956 Y-6.772 Z-0.242
X-21.914 Y-6.844 Z-0.245
X-21.912 Y-6.847
X-21.856 Y-6.905 Z-0.248
X-21.84 Y-6.922
X-21.837 Y-6.925 Z-0.249
X-21.807 Y-6.944 Z-0.25
X-21.746 Y-6.982 Z-0.252
X-21.743 Y-6.984
X-21.707 Y-6.997 Z-0.254
X-21.643 Y-7.02 Z-0.256
X-21.639 Y-7.021
X-21.596 Y-7.025 Z-0.258
X-21.536 Y-7.031 Z-0.26
X-21.532
X-21.513 Y-7.028 Z-0.261
X-21.428 Y-7.016 Z-0.264
X-21.425 Y-7.015
X-21.421 Y-7.014
X-21.33 Y-6.977 Z-0.267
X-21.326 Y-6.975
X-21.317 Y-6.968 Z-0.268
X-21.24 Y-6.913 Z-0.271
X-21.238 Y-6.91
X-21.228 Y-6.898 Z-0.272
X-21.172 Y-6.832 Z-0.275
X-21.17 Y-6.829
X-21.16 Y-6.808 Z-0.276
X-21.125 Y-6.737 Z-0.279
X-21.124 Y-6.734
X-21.106 Y-6.653 Z-0.282
X-21.101 Y-6.631
Y-6.627
X-21.102 Y-6.593 Z-0.284
X-21.105 Y-6.525 Z-0.286
Y-6.522
X-21.117 Y-6.482 Z-0.288
X-21.133 Y-6.424 Z-0.29
X-21.134 Y-6.421
X-21.158 Y-6.378 Z-0.291
X-21.185 Y-6.331 Z-0.293
X-21.187 Y-6.328
X-21.258 Y-6.254 Z-0.297
X-21.261 Y-6.252
X-21.267 Y-6.248
X-21.349 Y-6.196 Z-0.301
X-21.352 Y-6.195
X-21.362 Y-6.191
X-21.45 Y-6.16 Z-0.305
X-21.453 Y-6.159
X-21.468 Y-6.158
X-21.553 Y-6.149 Z-0.308
X-21.556
X-21.578 Y-6.152 Z-0.309
X-21.655 Y-6.163 Z-0.312
X-21.659 Y-6.164
X-21.755 Y-6.203 Z-0.315
X-21.758 Y-6.205 Z-0.316
X-21.784 Y-6.224 Z-0.317
X-21.838 Y-6.263 Z-0.319
X-21.841 Y-6.266
X-21.866 Y-6.296 Z-0.321
X-21.904 Y-6.342 Z-0.323
X-21.906 Y-6.345
X-21.927 Y-6.387 Z-0.324
X-21.95 Y-6.435 Z-0.326
X-21.951 Y-6.439
X-21.972 Y-6.535 Z-0.33
Y-6.539
Y-6.546
X-21.969 Y-6.637 Z-0.333
Y-6.641
X-21.965 Y-6.655 Z-0.334
X-21.942 Y-6.735 Z-0.337
X-21.941 Y-6.739
X-21.93 Y-6.757 Z-0.338
X-21.891 Y-6.827 Z-0.341
X-21.888 Y-6.83
X-21.835 Y-6.885 Z-0.343
X-21.82 Y-6.9 Z-0.344
X-21.818 Y-6.902
X-21.791 Y-6.919 Z-0.345
X-21.732 Y-6.957 Z-0.348
X-21.729 Y-6.958
X-21.696 Y-6.969 Z-0.349
X-21.637 Y-6.991 Z-0.351
X-21.634 Y-6.992
X-21.593 Y-6.996 Z-0.353
X-21.534 Y-7.002 Z-0.355
X-21.53
X-21.438 Y-6.989 Z-0.358
X-21.435 Y-6.988
X-21.432 Y-6.987
X-21.383 Y-6.967 Z-0.36
X-21.342 Y-6.951 Z-0.361
X-21.339 Y-6.949
X-21.333 Y-6.945
X-21.291 Y-6.914 Z-0.363
X-21.261 Y-6.892 Z-0.364
X-21.258 Y-6.89
X-21.249 Y-6.88 Z-0.365
X-21.216 Y-6.84 Z-0.366
X-21.196 Y-6.816 Z-0.367
X-21.194 Y-6.814
X-21.185 Y-6.795 Z-0.368
X-21.156 Y-6.736 Z-0.37
X-21.152 Y-6.727
X-21.15 Y-6.724
X-21.144 Y-6.698 Z-0.371
X-21.13 Y-6.634 Z-0.372
X-21.129 Y-6.627 Z-0.373
Y-6.624
X-21.13 Y-6.593 Z-0.374
X-21.132 Y-6.528 Z-0.375
X-21.133 Y-6.524
X-21.143 Y-6.489 Z-0.376
X-21.159 Y-6.432 Z-0.378
X-21.16 Y-6.429
X-21.182 Y-6.391 Z-0.379
X-21.208 Y-6.345 Z-0.38
X-21.212 Y-6.34
X-21.276 Y-6.273 Z-0.382
X-21.279 Y-6.271 Z-0.383
X-21.282 Y-6.27
X-21.359 Y-6.22 Z-0.385
X-21.362 Y-6.219
X-21.371 Y-6.215
X-21.454 Y-6.185 Z-0.387
X-21.458 Y-6.184
X-21.471 Y-6.183
X-21.552 Y-6.174 Z-0.389
X-21.556
X-21.575 Y-6.176
X-21.65 Y-6.187 Z-0.39
X-21.653
X-21.677 Y-6.197 Z-0.391
X-21.741 Y-6.222 Z-0.392
X-21.744 Y-6.224
X-21.771 Y-6.243
X-21.821 Y-6.279 Z-0.393
X-21.824 Y-6.281
X-21.849 Y-6.311 Z-0.394
X-21.885 Y-6.353 Z-0.395
X-21.887 Y-6.356
X-21.907 Y-6.397
X-21.929 Y-6.441 Z-0.396
X-21.931 Y-6.444
X-21.936 Y-6.469
X-21.952 Y-6.539 Z-0.397
Y-6.546
X-21.95 Y-6.63 Z-0.398
X-21.949 Y-6.637
Y-6.64
X-21.946 Y-6.649
X-21.925 Y-6.728 Z-0.399
X-21.924 Y-6.731
X-21.922 Y-6.734
X-21.914 Y-6.748
X-21.876 Y-6.816
X-21.874 Y-6.819
X-21.858 Y-6.835
X-21.809 Y-6.888 Z-0.4
X-21.806 Y-6.89
X-21.782 Y-6.905
X-21.727 Y-6.941
X-21.724 Y-6.942
X-21.691 Y-6.955
X-21.631 Y-6.977
X-21.627 Y-6.978
X-21.611 Y-6.981
X-21.536 Y-6.989
X-21.533 Y-6.99
X-21.438 Y-6.977
X-21.436
X-21.347 Y-6.942
X-21.345 Y-6.941
X-21.265 Y-6.884
X-21.264 Y-6.882
X-21.202 Y-6.811
X-21.201 Y-6.809
X-21.158 Y-6.723
X-21.157 Y-6.721
X-21.136 Y-6.627
Y-6.626
X-21.138 Y-6.53
Y-6.527
X-21.163 Y-6.434
X-21.164 Y-6.432
X-21.211 Y-6.348
X-21.213 Y-6.346
X-21.278 Y-6.277
X-21.28 Y-6.275
X-21.362 Y-6.222
X-21.364 Y-6.221
X-21.455 Y-6.187
X-21.457 Y-6.186
X-21.554 Y-6.176
X-21.556
X-21.651 Y-6.188
X-21.653 Y-6.189
X-21.742 Y-6.224
X-21.744 Y-6.225
X-21.823 Y-6.281
X-21.825 Y-6.284
X-21.885 Y-6.354
X-21.887 Y-6.356
X-21.931 Y-6.443
Y-6.445
X-21.952 Y-6.538
Y-6.54
X-21.95 Y-6.636
Y-6.638
X-21.925 Y-6.731
X-21.924 Y-6.734
X-21.878 Y-6.816
X-21.877 Y-6.818
X-21.811 Y-6.888
X-21.809 Y-6.89
X-21.725 Y-6.944
X-21.724
X-21.633 Y-6.978
X-21.631 Y-6.979
X-21.611 Y-6.981
X-21.6 Y-6.978
X-21.595 Y-6.968
X-21.564 Y-6.735
X-21.568 Y-6.72
X-21.583 Y-6.714
X-21.597 Y-6.721
X-21.6 Y-6.737
X-21.591 Y-6.749
X-21.575 Y-6.75
X-21.565 Y-6.739
X-21.564 Y-6.738 F333.3
X-21.567 Y-6.722 Z-0.401
X-21.582 Y-6.714
X-21.597 Y-6.722 Z-0.402
X-21.6 Y-6.738
X-21.588 Y-6.75 Z-0.403
X-21.571 Y-6.748 Z-0.404
X-21.564 Y-6.733
X-21.571 Y-6.718 Z-0.405
X-21.588 Y-6.715
X-21.6 Y-6.727 Z-0.406
X-21.597 Y-6.743 Z-0.407
X-21.583 Y-6.751
X-21.567 Y-6.744 Z-0.408
X-21.564 Y-6.728
X-21.576 Y-6.715 Z-0.409
X-21.592 Y-6.717 Z-0.41
X-21.601 Y-6.732
X-21.594 Y-6.747 Z-0.411
X-21.577 Y-6.751 Z-0.412
X-21.565 Y-6.739
X-21.566 Y-6.723 Z-0.413
X-21.581 Y-6.714
X-21.596 Y-6.721 Z-0.414
X-21.6 Y-6.737 Z-0.415
X-21.589 Y-6.75
X-21.572 Y-6.749 Z-0.416
X-21.564 Y-6.734
X-21.57 Y-6.719 Z-0.417
X-21.586 Y-6.715 Z-0.418
X-21.599 Y-6.725
X-21.598 Y-6.742 Z-0.419
X-21.584 Y-6.751
X-21.568 Y-6.745 Z-0.42
X-21.564 Y-6.729 Z-0.421
X-21.574 Y-6.716
X-21.591 Y-6.717 Z-0.422
X-21.6 Y-6.73
X-21.595 Y-6.746 Z-0.423
X-21.579 Y-6.751 Z-0.424
X-21.565 Y-6.741
X-21.566 Y-6.724 Z-0.425
X-21.579 Y-6.714
X-21.595 Y-6.72 Z-0.426
X-21.6 Y-6.736 Z-0.427
X-21.591 Y-6.749
X-21.574 Z-0.428
X-21.564 Y-6.736
X-21.569 Y-6.72 Z-0.429
X-21.585 Y-6.714 Z-0.43
X-21.598 Y-6.724
X-21.599 Y-6.741 Z-0.431
X-21.585 Y-6.751 Z-0.432
X-21.569 Y-6.746
X-21.564 Y-6.73 Z-0.433
X-21.573 Y-6.717
X-21.59 Y-6.716 Z-0.434
X-21.6 Y-6.729 Z-0.435
X-21.596 Y-6.745
X-21.58 Y-6.751 Z-0.436
X-21.566 Y-6.742
X-21.565 Y-6.725 Z-0.437
X-21.578 Y-6.715 Z-0.438
X-21.594 Y-6.719
X-21.601 Y-6.734 Z-0.439
X-21.592 Y-6.748
X-21.575 Y-6.75 Z-0.44
X-21.564 Y-6.737 Z-0.441
X-21.568 Y-6.721
X-21.583 Y-6.714 Z-0.442
X-21.598 Y-6.723
X-21.599 Y-6.739 Z-0.443
X-21.587 Y-6.751 Z-0.444
X-21.571 Y-6.747
X-21.564 Y-6.732 Z-0.445
X-21.572 Y-6.717
X-21.588 Y-6.715 Z-0.446
X-21.6 Y-6.728 Z-0.447
X-21.597 Y-6.744
X-21.582 Y-6.751 Z-0.448
X-21.567 Y-6.743
X-21.565 Y-6.727 Z-0.449
X-21.577 Y-6.715 Z-0.45
X-21.593 Y-6.718
X-21.601 Y-6.733 Z-0.451
X-21.593 Y-6.748 Z-0.452
X-21.576 Y-6.75
X-21.565 Y-6.739 Z-0.453
X-21.567 Y-6.722
X-21.582 Y-6.714 Z-0.454
X-21.597 Y-6.722 Z-0.455
X-21.6 Y-6.738
X-21.588 Y-6.75 Z-0.456
X-21.572 Y-6.748
X-21.564 Y-6.733 Z-0.457
X-21.571 Y-6.718 Z-0.458
X-21.587 Y-6.715
X-21.599 Y-6.726 Z-0.459
X-21.598 Y-6.743
X-21.583 Y-6.751 Z-0.46
X-21.568 Y-6.744 Z-0.461
X-21.564 Y-6.728
X-21.575 Y-6.716 Z-0.462
X-21.592 Y-6.717
X-21.601 Y-6.731 Z-0.463
X-21.594 Y-6.747 Z-0.464
X-21.578 Y-6.751
X-21.565 Y-6.74 Z-0.465
X-21.566 Y-6.723
X-21.58 Y-6.714 Z-0.466
X-21.596 Y-6.72 Z-0.467
X-21.6 Y-6.737
X-21.59 Y-6.75 Z-0.468
X-21.573 Y-6.749
X-21.564 Y-6.735 Z-0.469
X-21.57 Y-6.719 Z-0.47
X-21.586 Y-6.715
X-21.599 Y-6.725 Z-0.471
X-21.598 Y-6.742 Z-0.472
X-21.585 Y-6.751
X-21.569 Y-6.746 Z-0.473
X-21.564 Y-6.73
X-21.574 Y-6.716 Z-0.474
X-21.591 Z-0.475
X-21.6 Y-6.73
X-21.595 Y-6.746 Z-0.476
X-21.579 Y-6.751
X-21.566 Y-6.741 Z-0.477
Y-6.725 Z-0.478
X-21.579 Y-6.714
X-21.595 Y-6.719 Z-0.479
X-21.6 Y-6.735
X-21.591 Y-6.749 Z-0.48
X-21.574 Z-0.481
X-21.564 Y-6.736
X-21.569 Y-6.72 Z-0.482
X-21.584 Y-6.714
X-21.598 Y-6.724 Z-0.483
X-21.599 Y-6.74 Z-0.484
X-21.586 Y-6.751
X-21.57 Y-6.747 Z-0.485
X-21.564 Y-6.731
X-21.573 Y-6.717 Z-0.486
X-21.589 Y-6.716 Z-0.487
X-21.6 Y-6.728
X-21.596 Y-6.745 Z-0.488
X-21.581 Y-6.751
X-21.566 Y-6.743 Z-0.489
X-21.565 Y-6.726 Z-0.49
X-21.577 Y-6.715
X-21.594 Y-6.718 Z-0.491
X-21.601 Y-6.734 Z-0.492
X-21.592 Y-6.748
X-21.576 Y-6.75 Z-0.493
X-21.564 Y-6.738
X-21.568 Y-6.721 Z-0.494
X-21.583 Y-6.714 Z-0.495
X-21.597 Y-6.722
X-21.6 Y-6.739 Z-0.496
X-21.587 Y-6.75
X-21.571 Y-6.747 Z-0.497
X-21.564 Y-6.732 Z-0.498
X-21.571 Y-6.718
X-21.588 Y-6.715 Z-0.499
X-21.6 Y-6.727
X-21.597 Y-6.744 Z-0.5
X-21.582 Y-6.751 Z-0.501
X-21.567 Y-6.744
X-21.564 Y-6.727 Z-0.502
X-21.576 Y-6.715
X-21.593 Y-6.718 Z-0.503
X-21.601 Y-6.732 Z-0.504
X-21.593 Y-6.747
X-21.577 Y-6.75 Z-0.505
X-21.565 Y-6.739
X-21.567 Y-6.722 Z-0.506
X-21.581 Y-6.714 Z-0.507
X-21.597 Y-6.721
X-21.6 Y-6.738 Z-0.508
X-21.589 Y-6.75
X-21.572 Y-6.748 Z-0.509
X-21.564 Y-6.734 Z-0.51
X-21.57 Y-6.719
X-21.587 Y-6.715 Z-0.511
X-21.599 Y-6.726 Z-0.512
X-21.598 Y-6.742
X-21.584 Y-6.751 Z-0.513
X-21.568 Y-6.745
X-21.564 Y-6.729 Z-0.514
X-21.575 Y-6.716 Z-0.515
X-21.591 Y-6.717
X-21.6 Y-6.731 Z-0.516
X-21.594 Y-6.746
X-21.578 Y-6.751 Z-0.517
X-21.565 Y-6.74 Z-0.518
X-21.566 Y-6.724
X-21.58 Y-6.714 Z-0.519
X-21.596 Y-6.72
X-21.6 Y-6.736 Z-0.52
X-21.59 Y-6.749 Z-0.521
X-21.573
X-21.564 Y-6.735 Z-0.522
X-21.569 Y-6.719
X-21.585 Y-6.714 Z-0.523
X-21.599 Y-6.724 Z-0.524
Y-6.741
X-21.585 Y-6.751 Z-0.525
X-21.569 Y-6.746
X-21.564 Y-6.73 Z-0.526
X-21.573 Y-6.716 Z-0.527
X-21.59
X-21.6 Y-6.729 Z-0.528
X-21.596 Y-6.745
X-21.58 Y-6.751 Z-0.529
X-21.566 Y-6.742 Z-0.53
X-21.565 Y-6.725
X-21.578 Y-6.715 Z-0.531
X-21.595 Y-6.719 Z-0.532
X-21.6 Y-6.735
X-21.591 Y-6.749 Z-0.533
X-21.575 Y-6.75
X-21.564 Y-6.737 Z-0.534
X-21.568 Y-6.721 Z-0.535
X-21.584 Y-6.714
X-21.598 Y-6.723 Z-0.536
X-21.599 Y-6.74
X-21.586 Y-6.751 Z-0.537
X-21.57 Y-6.747 Z-0.538
X-21.564 Y-6.731
X-21.572 Y-6.717 Z-0.539
X-21.589 Y-6.715
X-21.6 Y-6.728 Z-0.54
X-21.596 Y-6.744 Z-0.541
X-21.581 Y-6.751
X-21.567 Y-6.743 Z-0.542
X-21.565 Y-6.726
X-21.577 Y-6.715 Z-0.543
X-21.593 Y-6.718 Z-0.544
X-21.601 Y-6.733
X-21.593 Y-6.748 Z-0.545
X-21.576 Y-6.75
X-21.564 Y-6.738 Z-0.546
X-21.567 Y-6.722 Z-0.547
X-21.582 Y-6.714
X-21.597 Y-6.722 Z-0.548
X-21.6 Y-6.738
X-21.588 Y-6.75 Z-0.549
X-21.571 Y-6.748 Z-0.55
X-21.564 Y-6.733
X-21.571 Y-6.718 Z-0.551
X-21.587 Y-6.715 Z-0.552
X-21.6 Y-6.727
X-21.597 Y-6.743 Z-0.553
X-21.583 Y-6.751
X-21.568 Y-6.744 Z-0.554
X-21.564 Y-6.728 Z-0.555
X-21.576 Y-6.715
X-21.592 Y-6.717 Z-0.556
X-21.601 Y-6.732
X-21.594 Y-6.747 Z-0.557
X-21.577 Y-6.751 Z-0.558
X-21.565 Y-6.74
X-21.566 Y-6.723 Z-0.559
X-21.581 Y-6.714
X-21.596 Y-6.721 Z-0.56
X-21.6 Y-6.737 Z-0.561
X-21.589 Y-6.75
X-21.573 Y-6.749 Z-0.562
X-21.564 Y-6.734
X-21.57 Y-6.719 Z-0.563
X-21.586 Y-6.715 Z-0.564
X-21.599 Y-6.725
X-21.598 Y-6.742 Z-0.565
X-21.584 Y-6.751
X-21.568 Y-6.745 Z-0.566
X-21.564 Y-6.729 Z-0.567
X-21.574 Y-6.716
X-21.591 Y-6.717 Z-0.568
X-21.6 Y-6.73
X-21.595 Y-6.746 Z-0.569
X-21.579 Y-6.751 Z-0.57
X-21.565 Y-6.741
X-21.566 Y-6.724 Z-0.571
X-21.579 Y-6.714 Z-0.572
X-21.595 Y-6.72
X-21.6 Y-6.736 Z-0.573
X-21.591 Y-6.749
X-21.574 Z-0.574
X-21.564 Y-6.736 Z-0.575
X-21.569 Y-6.72
X-21.585 Y-6.714 Z-0.576
X-21.598 Y-6.724
X-21.599 Y-6.741 Z-0.577
X-21.586 Y-6.751 Z-0.578
X-21.569 Y-6.746
X-21.564 Y-6.731 Z-0.579
X-21.573 Y-6.717
X-21.59 Y-6.716 Z-0.58
X-21.6 Y-6.729 Z-0.581
X-21.596 Y-6.745
X-21.58 Y-6.751 Z-0.582
X-21.566 Y-6.742
X-21.565 Y-6.725 Z-0.583
X-21.578 Y-6.715 Z-0.584
X-21.594 Y-6.719
X-21.601 Y-6.734 Z-0.585
X-21.592 Y-6.748
X-21.575 Y-6.75 Z-0.586
X-21.564 Y-6.737 Z-0.587
X-21.568 Y-6.721
X-21.583 Y-6.714 Z-0.588
X-21.598 Y-6.723
X-21.599 Y-6.739 Z-0.589
X-21.587 Y-6.751 Z-0.59
X-21.571 Y-6.747
X-21.564 Y-6.732 Z-0.591
X-21.572 Y-6.717 Z-0.592
X-21.588 Y-6.715
X-21.6 Y-6.728 Z-0.593
X-21.597 Y-6.744
X-21.582 Y-6.751 Z-0.594
X-21.567 Y-6.743 Z-0.595
X-21.565 Y-6.727
X-21.577 Y-6.715 Z-0.596
X-21.593 Y-6.718
X-21.601 Y-6.733 Z-0.597
X-21.593 Y-6.748 Z-0.598
X-21.576 Y-6.75
X-21.565 Y-6.739 Z-0.599
X-21.567 Y-6.722
X-21.582 Y-6.714 Z-0.6
X-21.597 Y-6.722 Z-0.601
X-21.6 Y-6.738
X-21.588 Y-6.75 Z-0.602
X-21.572 Y-6.748
X-21.564 Y-6.733 Z-0.603
X-21.571 Y-6.718 Z-0.604
X-21.587 Y-6.715
X-21.599 Y-6.726 Z-0.605
X-21.598 Y-6.743
X-21.583 Y-6.751 Z-0.606
X-21.568 Y-6.744 Z-0.607
X-21.564 Y-6.728
X-21.575 Y-6.716 Z-0.608
X-21.592 Y-6.717
X-21.601 Y-6.731 Z-0.609
X-21.594 Y-6.747 Z-0.61
X-21.578 Y-6.751
X-21.565 Y-6.74 Z-0.611
X-21.566 Y-6.723 Z-0.612
X-21.58 Y-6.714
X-21.596 Y-6.72 Z-0.613
X-21.6 Y-6.737
X-21.59 Y-6.75 Z-0.614
X-21.573 Y-6.749 Z-0.615
X-21.564 Y-6.735
X-21.569 Y-6.719 Z-0.616
X-21.586 Y-6.715
X-21.599 Y-6.725 Z-0.617
X-21.598 Y-6.742 Z-0.618
X-21.585 Y-6.751
X-21.569 Y-6.746 Z-0.619
X-21.564 Y-6.73
X-21.574 Y-6.716 Z-0.62
X-21.591 Z-0.621
X-21.6 Y-6.73
X-21.595 Y-6.746 Z-0.622
X-21.579 Y-6.751
X-21.566 Y-6.741 Z-0.623
X-21.565 Y-6.725 Z-0.624
X-21.579 Y-6.715
X-21.595 Y-6.719 Z-0.625
X-21.6 Y-6.735
X-21.591 Y-6.749 Z-0.626
X-21.574 Z-0.627
X-21.564 Y-6.736
X-21.568 Y-6.72 Z-0.628
X-21.584 Y-6.714
X-21.598 Y-6.724 Z-0.629
X-21.599 Y-6.74 Z-0.63
X-21.586 Y-6.751
X-21.57 Y-6.747 Z-0.631
X-21.564 Y-6.731 Z-0.632
X-21.573 Y-6.717
X-21.589 Y-6.716 Z-0.633
X-21.6 Y-6.728
X-21.596 Y-6.745 Z-0.634
X-21.581 Y-6.751 Z-0.635
X-21.566 Y-6.743
X-21.565 Y-6.726 Z-0.636
X-21.577 Y-6.715
X-21.594 Y-6.718 Z-0.637
X-21.601 Y-6.734 Z-0.638
X-21.592 Y-6.748
X-21.576 Y-6.75 Z-0.639
X-21.564 Y-6.738
X-21.568 Y-6.721 Z-0.64
X-21.583 Y-6.714 Z-0.641
X-21.597 Y-6.722
X-21.6 Y-6.739 Z-0.642
X-21.587 Y-6.75
X-21.571 Y-6.747 Z-0.643
X-21.564 Y-6.732 Z-0.644
X-21.571 Y-6.718
X-21.588 Y-6.715 Z-0.645
X-21.6 Y-6.727
X-21.597 Y-6.744 Z-0.646
X-21.582 Y-6.751 Z-0.647
X-21.567 Y-6.744
X-21.564 Y-6.727 Z-0.648
X-21.576 Y-6.715
X-21.593 Y-6.718 Z-0.649
X-21.601 Y-6.732 Z-0.65
X-21.593 Y-6.747
X-21.577 Y-6.75 Z-0.651
X-21.565 Y-6.739 Z-0.652
X-21.567 Y-6.722
X-21.581 Y-6.714 Z-0.653
X-21.597 Y-6.721
X-21.6 Y-6.737 Z-0.654
X-21.589 Y-6.75 Z-0.655
X-21.572 Y-6.748
X-21.564 Y-6.734 Z-0.656
X-21.57 Y-6.719
X-21.587 Y-6.715 Z-0.657
X-21.599 Y-6.726 Z-0.658
X-21.598 Y-6.742
X-21.584 Y-6.751 Z-0.659
X-21.568 Y-6.745
X-21.564 Y-6.729 Z-0.66
X-21.575 Y-6.716 Z-0.661
X-21.591 Y-6.717
X-21.6 Y-6.731 Z-0.662
X-21.595 Y-6.746
X-21.578 Y-6.751 Z-0.663
X-21.565 Y-6.74 Z-0.664
X-21.566 Y-6.724
X-21.58 Y-6.714 Z-0.665
X-21.596 Y-6.72
X-21.6 Y-6.736 Z-0.666
X-21.59 Y-6.749 Z-0.667
X-21.573
X-21.564 Y-6.735 Z-0.668
X-21.569 Y-6.72
X-21.585 Y-6.714 Z-0.669
X-21.599 Y-6.724 Z-0.67
Y-6.741
X-21.585 Y-6.751 Z-0.671
X-21.569 Y-6.746 Z-0.672
X-21.564 Y-6.73
X-21.573 Y-6.716 Z-0.673
X-21.59
X-21.6 Y-6.729 Z-0.674
X-21.596 Y-6.745 Z-0.675
X-21.58 Y-6.751
X-21.566 Y-6.742 Z-0.676
X-21.565 Y-6.725
X-21.578 Y-6.715 Z-0.677
X-21.595 Y-6.719 Z-0.678
X-21.6 Y-6.735
X-21.591 Y-6.749 Z-0.679
X-21.575 Y-6.75
X-21.564 Y-6.737 Z-0.68
X-21.568 Y-6.721 Z-0.681
X-21.584 Y-6.714
X-21.598 Y-6.723 Z-0.682
X-21.599 Y-6.74
X-21.587 Y-6.751 Z-0.683
X-21.57 Y-6.747 Z-0.684
X-21.564 Y-6.732
X-21.572 Y-6.717 Z-0.685
X-21.589 Y-6.715
X-21.6 Y-6.728 Z-0.686
X-21.597 Y-6.744 Z-0.687
X-21.581 Y-6.751
X-21.567 Y-6.743 Z-0.688
X-21.565 Y-6.726
X-21.577 Y-6.715 Z-0.689
X-21.593 Y-6.718 Z-0.69
X-21.601 Y-6.733
X-21.593 Y-6.748 Z-0.691
X-21.576 Y-6.75 Z-0.692
X-21.564 Y-6.738
X-21.567 Y-6.722 Z-0.693
X-21.582 Y-6.714
X-21.597 Y-6.722 Z-0.694
X-21.6 Y-6.738 Z-0.695
X-21.588 Y-6.75
X-21.571 Y-6.748 Z-0.696
X-21.564 Y-6.733
X-21.571 Y-6.718 Z-0.697
X-21.587 Y-6.715 Z-0.698
X-21.6 Y-6.727
X-21.597 Y-6.743 Z-0.699
X-21.583 Y-6.751
X-21.568 Y-6.744 Z-0.7
X-21.564 Y-6.728 Z-0.701
X-21.576 Y-6.715
X-21.592 Y-6.717 Z-0.702
X-21.601 Y-6.732
X-21.594 Y-6.747 Z-0.703
X-21.577 Y-6.751 Z-0.704
X-21.565 Y-6.74
X-21.566 Y-6.723 Z-0.705
X-21.581 Y-6.714
X-21.596 Y-6.721 Z-0.706
X-21.6 Y-6.737 Z-0.707
X-21.589 Y-6.75
X-21.573 Y-6.749 Z-0.708
X-21.564 Y-6.734
X-21.57 Y-6.719 Z-0.709
X-21.586 Y-6.715 Z-0.71
X-21.599 Y-6.725
X-21.598 Y-6.742 Z-0.711
X-21.584 Y-6.751 Z-0.712
X-21.568 Y-6.745
X-21.564 Y-6.729 Z-0.713
X-21.574 Y-6.716
X-21.591 Z-0.714
X-21.6 Y-6.73 Z-0.715
X-21.595 Y-6.746
X-21.579 Y-6.751 Z-0.716
X-21.565 Y-6.741
X-21.566 Y-6.724 Z-0.717
X-21.579 Y-6.714 Z-0.718
X-21.595 Y-6.72
X-21.6 Y-6.736 Z-0.719
X-21.591 Y-6.749
X-21.574 Z-0.72
X-21.564 Y-6.736 Z-0.721
X-21.569 Y-6.72
X-21.585 Y-6.714 Z-0.722
X-21.598 Y-6.724
X-21.599 Y-6.741 Z-0.723
X-21.586 Y-6.751 Z-0.724
X-21.57 Y-6.746
X-21.564 Y-6.731 Z-0.725
X-21.573 Y-6.717
X-21.59 Y-6.716 Z-0.726
X-21.6 Y-6.729 Z-0.727
X-21.596 Y-6.745
X-21.58 Y-6.751 Z-0.728
X-21.566 Y-6.742
X-21.565 Y-6.725 Z-0.729
X-21.578 Y-6.715 Z-0.73
X-21.594 Y-6.719
X-21.601 Y-6.734 Z-0.731
X-21.592 Y-6.748 Z-0.732
X-21.575 Y-6.75
X-21.564 Y-6.737 Z-0.733
X-21.568 Y-6.721
X-21.583 Y-6.714 Z-0.734
X-21.598 Y-6.723 Z-0.735
X-21.599 Y-6.739
X-21.587 Y-6.751 Z-0.736
X-21.571 Y-6.747
X-21.564 Y-6.732 Z-0.737
X-21.572 Y-6.717 Z-0.738
X-21.588 Y-6.715
X-21.6 Y-6.727 Z-0.739
X-21.597 Y-6.744
X-21.582 Y-6.751 Z-0.74
X-21.567 Y-6.743 Z-0.741
X-21.565 Y-6.727
X-21.576 Y-6.715 Z-0.742
X-21.593 Y-6.718
X-21.601 Y-6.733 Z-0.743
X-21.593 Y-6.748 Z-0.744
X-21.577 Y-6.75
X-21.565 Y-6.739 Z-0.745
X-21.567 Y-6.722
X-21.582 Y-6.714 Z-0.746
X-21.597 Y-6.721 Z-0.747
X-21.6 Y-6.738
X-21.588 Y-6.75 Z-0.748
X-21.572 Y-6.748
X-21.564 Y-6.733 Z-0.749
X-21.571 Y-6.718 Z-0.75
X-21.587 Y-6.715
X-21.599 Y-6.726 Z-0.751
X-21.598 Y-6.743 Z-0.752
X-21.583 Y-6.751
X-21.568 Y-6.745 Z-0.753
X-21.564 Y-6.728
X-21.575 Y-6.716 Z-0.754
X-21.592 Y-6.717 Z-0.755
X-21.601 Y-6.731
X-21.594 Y-6.747 Z-0.756
X-21.578 Y-6.751
X-21.565 Y-6.74 Z-0.757
X-21.566 Y-6.723 Z-0.758
X-21.58 Y-6.714
X-21.596 Y-6.72 Z-0.759
X-21.6 Y-6.737
X-21.59 Y-6.75 Z-0.76
X-21.573 Y-6.749 Z-0.761
X-21.564 Y-6.735
X-21.569 Y-6.719 Z-0.762
X-21.586 Y-6.715
X-21.599 Y-6.725 Z-0.763
X-21.598 Y-6.741 Z-0.764
X-21.585 Y-6.751
X-21.569 Y-6.746 Z-0.765
X-21.564 Y-6.73
X-21.574 Y-6.716 Z-0.766
X-21.591 Z-0.767
X-21.6 Y-6.73
X-21.595 Y-6.746 Z-0.768
X-21.579 Y-6.751
X-21.566 Y-6.741 Z-0.769
X-21.565 Y-6.725 Z-0.77
X-21.579 Y-6.715
X-21.595 Y-6.719 Z-0.771
X-21.6 Y-6.735 Z-0.772
X-21.591 Y-6.749
X-21.574 Z-0.773
X-21.564 Y-6.736
X-21.568 Y-6.72 Z-0.774
X-21.584 Y-6.714 Z-0.775
X-21.598 Y-6.723
X-21.599 Y-6.74 Z-0.776
X-21.586 Y-6.751
X-21.57 Y-6.747 Z-0.777
X-21.564 Y-6.731 Z-0.778
X-21.573 Y-6.717
X-21.589 Y-6.716 Z-0.779
X-21.6 Y-6.728
X-21.596 Y-6.745 Z-0.78
X-21.581 Y-6.751 Z-0.781
X-21.566 Y-6.743
X-21.565 Y-6.726 Z-0.782
X-21.577 Y-6.715
X-21.594 Y-6.718 Z-0.783
X-21.601 Y-6.734 Z-0.784
X-21.592 Y-6.748
X-21.576 Y-6.75 Z-0.785
X-21.564 Y-6.738
X-21.568 Y-6.721 Z-0.786
X-21.583 Y-6.714 Z-0.787
X-21.597 Y-6.722
X-21.6 Y-6.739 Z-0.788
X-21.587 Y-6.75
X-21.571 Y-6.748 Z-0.789
X-21.564 Y-6.733 Z-0.79
X-21.571 Y-6.718
X-21.588 Y-6.715 Z-0.791
X-21.6 Y-6.727 Z-0.792
X-21.597 Y-6.744
X-21.582 Y-6.751 Z-0.793
X-21.567 Y-6.744
X-21.564 Y-6.727 Z-0.794
X-21.576 Y-6.715 Z-0.795
X-21.593 Y-6.717
X-21.601 Y-6.732 Z-0.796
X-21.593 Y-6.747
X-21.577 Y-6.751 Z-0.797
X-21.565 Y-6.739 Z-0.798
X-21.567 Y-6.723
X-21.581 Y-6.714 Z-0.799
X-21.596 Y-6.721
X-21.6 Y-6.737 Z-0.8
X-21.589 Y-6.75 Z-0.801
X-21.572 Y-6.748
X-21.564 Y-6.734 Z-0.802
X-21.57 Y-6.719
X-21.586 Y-6.715 Z-0.803
X-21.599 Y-6.726 Z-0.804
X-21.598 Y-6.742
X-21.584 Y-6.751 Z-0.805
X-21.568 Y-6.745
X-21.564 Y-6.729 Z-0.806
X-21.575 Y-6.716 Z-0.807
X-21.591 Y-6.717
X-21.6 Y-6.731 Z-0.808
X-21.595 Y-6.746
X-21.578 Y-6.751 Z-0.809
X-21.565 Y-6.74 Z-0.81
X-21.566 Y-6.724
X-21.58 Y-6.714 Z-0.811
X-21.596 Y-6.72 Z-0.812
X-21.6 Y-6.736
X-21.59 Y-6.749 Z-0.813
X-21.573
X-21.564 Y-6.735 Z-0.814
X-21.569 Y-6.72 Z-0.815
X-21.585 Y-6.714
X-21.599 Y-6.724 Z-0.816
Y-6.741
X-21.585 Y-6.751 Z-0.817
X-21.569 Y-6.746 Z-0.818
X-21.564 Y-6.73
X-21.573 Y-6.716 Z-0.819
X-21.59
X-21.6 Y-6.729 Z-0.82
X-21.596 Y-6.745 Z-0.821
X-21.58 Y-6.751
X-21.566 Y-6.742 Z-0.822
X-21.565 Y-6.725
X-21.578 Y-6.715 Z-0.823
X-21.594 Y-6.719 Z-0.824
X-21.6 Y-6.735
X-21.591 Y-6.749 Z-0.825
X-21.575 Y-6.75
X-21.564 Y-6.737 Z-0.826
X-21.568 Y-6.721 Z-0.827
X-21.584 Y-6.714
X-21.598 Y-6.723 Z-0.828
X-21.599 Y-6.74
X-21.587 Y-6.751 Z-0.829
X-21.57 Y-6.747 Z-0.83
X-21.564 Y-6.732
X-21.572 Y-6.717 Z-0.831
X-21.589 Y-6.715 Z-0.832
X-21.6 Y-6.728
X-21.597 Y-6.744 Z-0.833
X-21.581 Y-6.751
X-21.567 Y-6.743 Z-0.834
X-21.565 Y-6.726 Z-0.835
X-21.577 Y-6.715
X-21.593 Y-6.718 Z-0.836
X-21.601 Y-6.733
X-21.593 Y-6.748 Z-0.837
X-21.576 Y-6.75 Z-0.838
X-21.564 Y-6.738
X-21.567 Y-6.722 Z-0.839
X-21.582 Y-6.714
X-21.597 Y-6.722 Z-0.84
X-21.6 Y-6.738 Z-0.841
X-21.588 Y-6.75
X-21.571 Y-6.748 Z-0.842
X-21.564 Y-6.733
X-21.571 Y-6.718 Z-0.843
X-21.587 Y-6.715 Z-0.844
X-21.6 Y-6.727
X-21.597 Y-6.743 Z-0.845
X-21.583 Y-6.751
X-21.568 Y-6.744 Z-0.846
X-21.564 Y-6.728 Z-0.847
X-21.576 Y-6.715
X-21.592 Y-6.717 Z-0.848
X-21.601 Y-6.732
X-21.594 Y-6.747 Z-0.849
X-21.578 Y-6.751 Z-0.85
X-21.565 Y-6.74
X-21.566 Y-6.723 Z-0.851
X-21.581 Y-6.714 Z-0.852
X-21.596 Y-6.721
X-21.6 Y-6.737 Z-0.853
X-21.589 Y-6.75
X-21.573 Y-6.749 Z-0.854
X-21.564 Y-6.734 Z-0.855
X-21.57 Y-6.719
X-21.586 Y-6.715 Z-0.856
X-21.599 Y-6.725
X-21.598 Y-6.742 Z-0.857
X-21.584 Y-6.751 Z-0.858
X-21.569 Y-6.745
X-21.564 Y-6.729 Z-0.859
X-21.574 Y-6.716
X-21.591 Z-0.86
X-21.6 Y-6.73 Z-0.861
X-21.595 Y-6.746
X-21.579 Y-6.751 Z-0.862
X-21.566 Y-6.741
Y-6.724 Z-0.863
X-21.579 Y-6.714 Z-0.864
X-21.595 Y-6.72
X-21.6 Y-6.736 Z-0.865
X-21.591 Y-6.749
X-21.574 Z-0.866
X-21.564 Y-6.736 Z-0.867
X-21.569 Y-6.72
X-21.585 Y-6.714 Z-0.868
X-21.598 Y-6.724
X-21.599 Y-6.741 Z-0.869
X-21.586 Y-6.751 Z-0.87
X-21.57 Y-6.746
X-21.564 Y-6.731 Z-0.871
X-21.573 Y-6.717 Z-0.872
X-21.59 Y-6.716
X-21.6 Y-6.729 Z-0.873
X-21.596 Y-6.745
X-21.58 Y-6.751 Z-0.874
X-21.566 Y-6.742 Z-0.875
X-21.565 Y-6.726
X-21.578 Y-6.715 Z-0.876
X-21.594 Y-6.719
X-21.601 Y-6.734 Z-0.877
X-21.592 Y-6.748 Z-0.878
X-21.575 Y-6.75
X-21.564 Y-6.737 Z-0.879
X-21.568 Y-6.721
X-21.583 Y-6.714 Z-0.88
X-21.598 Y-6.723 Z-0.881
X-21.599 Y-6.739
X-21.587 Y-6.751 Z-0.882
X-21.571 Y-6.747
X-21.564 Y-6.732 Z-0.883
X-21.572 Y-6.717 Z-0.884
X-21.588 Y-6.715
X-21.6 Y-6.727 Z-0.885
X-21.597 Y-6.744
X-21.582 Y-6.751 Z-0.886
X-21.567 Y-6.743 Z-0.887
X-21.565 Y-6.727
X-21.576 Y-6.715 Z-0.888
X-21.593 Y-6.718
X-21.601 Y-6.733 Z-0.889
X-21.593 Y-6.748 Z-0.89
X-21.577 Y-6.75
X-21.565 Y-6.739 Z-0.891
X-21.567 Y-6.722 Z-0.892
X-21.582 Y-6.714
X-21.597 Y-6.721 Z-0.893
X-21.6 Y-6.738
X-21.588 Y-6.75 Z-0.894
X-21.572 Y-6.748 Z-0.895
X-21.564 Y-6.734
X-21.571 Y-6.718 Z-0.896
X-21.587 Y-6.715
X-21.599 Y-6.726 Z-0.897
X-21.598 Y-6.743 Z-0.898
X-21.583 Y-6.751
X-21.568 Y-6.745 Z-0.899
X-21.564 Y-6.728
X-21.575 Y-6.716 Z-0.9
X-21.592 Y-6.717 Z-0.901
X-21.601 Y-6.731
X-21.594 Y-6.747 Z-0.902
X-21.578 Y-6.751
X-21.565 Y-6.74 Z-0.903
X-21.566 Y-6.723 Z-0.904
X-21.58 Y-6.714
X-21.596 Y-6.72 Z-0.905
X-21.6 Y-6.736
X-21.59 Y-6.75 Z-0.906
X-21.573 Y-6.749 Z-0.907
X-21.564 Y-6.735
X-21.569 Y-6.719 Z-0.908
X-21.585 Y-6.715
X-21.599 Y-6.725 Z-0.909
X-21.598 Y-6.741 Z-0.91
X-21.585 Y-6.751
X-21.569 Y-6.746 Z-0.911
X-21.564 Y-6.73 Z-0.912
X-21.574 Y-6.716
X-21.59 Z-0.913
X-21.6 Y-6.73
X-21.595 Y-6.746 Z-0.914
X-21.579 Y-6.751 Z-0.915
X-21.566 Y-6.741
X-21.565 Y-6.725 Z-0.916
X-21.579 Y-6.715
X-21.595 Y-6.719 Z-0.917
X-21.6 Y-6.735 Z-0.918
X-21.591 Y-6.749
X-21.574 Y-6.75 Z-0.919
X-21.564 Y-6.736
X-21.568 Y-6.72 Z-0.92
X-21.584 Y-6.714 Z-0.921
X-21.598 Y-6.723
X-21.599 Y-6.74 Z-0.922
X-21.586 Y-6.751
X-21.57 Y-6.747 Z-0.923
X-21.564 Y-6.731 Z-0.924
X-21.572 Y-6.717
X-21.589 Y-6.716 Z-0.925
X-21.6 Y-6.728
X-21.596 Y-6.745 Z-0.926
X-21.581 Y-6.751 Z-0.927
X-21.566 Y-6.743
X-21.565 Y-6.726 Z-0.928
X-21.577 Y-6.715
X-21.594 Y-6.718 Z-0.929
X-21.601 Y-6.734 Z-0.93
X-21.592 Y-6.748
X-21.576 Y-6.75 Z-0.931
X-21.564 Y-6.738 Z-0.932
X-21.567 Y-6.721
X-21.583 Y-6.714 Z-0.933
X-21.597 Y-6.722
X-21.6 Y-6.739 Z-0.934
X-21.588 Y-6.75 Z-0.935
X-21.571 Y-6.748
X-21.564 Y-6.733 Z-0.936
X-21.571 Y-6.718
X-21.588 Y-6.715 Z-0.937
X-21.6 Y-6.727 Z-0.938
X-21.597 Y-6.743
X-21.582 Y-6.751 Z-0.939
X-21.567 Y-6.744
X-21.564 Y-6.727 Z-0.94
X-21.576 Y-6.715 Z-0.941
X-21.593 Y-6.717
X-21.601 Y-6.732 Z-0.942
X-21.593 Y-6.747
X-21.577 Y-6.751 Z-0.943
X-21.565 Y-6.739 Z-0.944
X-21.567 Y-6.723
X-21.581 Y-6.714 Z-0.945
X-21.596 Y-6.721
X-21.6 Y-6.737 Z-0.946
X-21.589 Y-6.75 Z-0.947
X-21.572 Y-6.748
X-21.564 Y-6.734 Z-0.948
X-21.57 Y-6.719
X-21.586 Y-6.715 Z-0.949
X-21.599 Y-6.726 Z-0.95
X-21.598 Y-6.742
X-21.584 Y-6.751 Z-0.951
X-21.568 Y-6.745 Z-0.952
X-21.564 Y-6.729
X-21.575 Y-6.716 Z-0.953
X-21.591 Y-6.717
X-21.6 Y-6.731 Z-0.954
X-21.595 Y-6.746 Z-0.955
X-21.578 Y-6.751
X-21.565 Y-6.741 Z-0.956
X-21.566 Y-6.724
X-21.58 Y-6.714 Z-0.957
X-21.595 Y-6.72 Z-0.958
X-21.6 Y-6.736
X-21.59 Y-6.749 Z-0.959
X-21.573
X-21.564 Y-6.735 Z-0.96
X-21.569 Y-6.72 Z-0.961
X-21.585 Y-6.714
X-21.599 Y-6.724 Z-0.962
Y-6.741
X-21.585 Y-6.751 Z-0.963
X-21.569 Y-6.746 Z-0.964
X-21.564 Y-6.73
X-21.573 Y-6.716 Z-0.965
X-21.59
X-21.6 Y-6.729 Z-0.966
X-21.596 Y-6.745 Z-0.967
X-21.58 Y-6.751
X-21.566 Y-6.742 Z-0.968
X-21.565 Y-6.725
X-21.578 Y-6.715 Z-0.969
X-21.594 Y-6.719 Z-0.97
X-21.601 Y-6.735
X-21.591 Y-6.749 Z-0.971
X-21.575 Y-6.75 Z-0.972
X-21.564 Y-6.737
X-21.568 Y-6.721 Z-0.973
X-21.584 Y-6.714
X-21.598 Y-6.723 Z-0.974
X-21.599 Y-6.74 Z-0.975
X-21.587 Y-6.751
X-21.57 Y-6.747 Z-0.976
X-21.564 Y-6.732
X-21.572 Y-6.717 Z-0.977
X-21.589 Y-6.715 Z-0.978
X-21.6 Y-6.728
X-21.597 Y-6.744 Z-0.979
X-21.581 Y-6.751
X-21.567 Y-6.743 Z-0.98
X-21.565 Y-6.726 Z-0.981
X-21.577 Y-6.715
X-21.593 Y-6.718 Z-0.982
X-21.601 Y-6.733
X-21.593 Y-6.748 Z-0.983
X-21.576 Y-6.75 Z-0.984
X-21.564 Y-6.738
X-21.567 Y-6.722 Z-0.985
X-21.582 Y-6.714
X-21.597 Y-6.722 Z-0.986
X-21.6 Y-6.738 Z-0.987
X-21.588 Y-6.75
X-21.571 Y-6.748 Z-0.988
X-21.564 Y-6.733
X-21.571 Y-6.718 Z-0.989
X-21.587 Y-6.715 Z-0.99
X-21.6 Y-6.726
X-21.597 Y-6.743 Z-0.991
X-21.583 Y-6.751 Z-0.992
X-21.568 Y-6.744
X-21.564 Y-6.728 Z-0.993
X-21.575 Y-6.715
X-21.592 Y-6.717 Z-0.994
X-21.601 Y-6.732 Z-0.995
X-21.594 Y-6.747
X-21.578 Y-6.751 Z-0.996
X-21.565 Y-6.74
X-21.566 Y-6.723 Z-0.997
X-21.581 Y-6.714 Z-0.998
X-21.596 Y-6.721
X-21.6 Y-6.737 Z-0.999
X-21.589 Y-6.75
X-21.573 Y-6.749 Z-1
X-21.564 Y-6.735 Z-1.001
X-21.57 Y-6.719
X-21.586 Y-6.715 Z-1.002
X-21.599 Y-6.725
X-21.598 Y-6.742 Z-1.003
X-21.584 Y-6.751 Z-1.004
X-21.569 Y-6.745
X-21.564 Y-6.729 Z-1.005
X-21.574 Y-6.716
X-21.591 Z-1.006
X-21.6 Y-6.73 Z-1.007
X-21.595 Y-6.746
X-21.579 Y-6.751 Z-1.008
X-21.566 Y-6.741
Y-6.724 Z-1.009
X-21.579 Y-6.714 Z-1.01
X-21.595 Y-6.72
X-21.6 Y-6.735 Z-1.011
X-21.591 Y-6.749 Z-1.012
X-21.574
X-21.564 Y-6.736 Z-1.013
X-21.569 Y-6.72
X-21.585 Y-6.714 Z-1.014
X-21.598 Y-6.724 Z-1.015
X-21.599 Y-6.741
X-21.586 Y-6.751 Z-1.016
X-21.57 Y-6.746
X-21.564 Y-6.731 Z-1.017
X-21.573 Y-6.717 Z-1.018
X-21.59 Y-6.716
X-21.6 Y-6.729 Z-1.019
X-21.596 Y-6.745
X-21.58 Y-6.751 Z-1.02
X-21.566 Y-6.742 Z-1.021
X-21.565 Y-6.726
X-21.578 Y-6.715 Z-1.022
X-21.594 Y-6.719
X-21.601 Y-6.734 Z-1.023
X-21.592 Y-6.748 Z-1.024
X-21.575 Y-6.75
X-21.564 Y-6.737 Z-1.025
X-21.568 Y-6.721
X-21.583 Y-6.714 Z-1.026
X-21.598 Y-6.723 Z-1.027
X-21.599 Y-6.739
X-21.587 Y-6.751 Z-1.028
X-21.571 Y-6.747
X-21.564 Y-6.732 Z-1.029
X-21.572 Y-6.717 Z-1.03
X-21.588 Y-6.715
X-21.6 Y-6.727 Z-1.031
X-21.597 Y-6.744 Z-1.032
X-21.582 Y-6.751
X-21.567 Y-6.743 Z-1.033
X-21.565 Y-6.727
X-21.576 Y-6.715 Z-1.034
X-21.593 Y-6.718 Z-1.035
X-21.601 Y-6.733
X-21.593 Y-6.748 Z-1.036
X-21.577 Y-6.75
X-21.565 Y-6.739 Z-1.037
X-21.567 Y-6.722 Z-1.038
X-21.582 Y-6.714
X-21.597 Y-6.721 Z-1.039
X-21.6 Y-6.738
X-21.588 Y-6.75 Z-1.04
X-21.572 Y-6.748 Z-1.041
X-21.564 Y-6.734
X-21.57 Y-6.718 Z-1.042
X-21.587 Y-6.715
X-21.599 Y-6.726 Z-1.043
X-21.598 Y-6.743 Z-1.044
X-21.583 Y-6.751
X-21.568 Y-6.745 Z-1.045
X-21.564 Y-6.728
X-21.575 Y-6.716 Z-1.046
X-21.592 Y-6.717 Z-1.047
X-21.601 Y-6.731
X-21.594 Y-6.747 Z-1.048
X-21.578 Y-6.751
X-21.565 Y-6.74 Z-1.049
X-21.566 Y-6.723 Z-1.05
X-21.58 Y-6.714
X-21.596 Y-6.72 Z-1.051
X-21.6 Y-6.736 Z-1.052
X-21.59 Y-6.75
X-21.573 Y-6.749 Z-1.053
X-21.564 Y-6.735
X-21.569 Y-6.719 Z-1.054
X-21.585 Y-6.715 Z-1.055
X-21.599 Y-6.725
X-21.598 Y-6.741 Z-1.056
X-21.585 Y-6.751
X-21.569 Y-6.746 Z-1.057
X-21.564 Y-6.73 Z-1.058
X-21.574 Y-6.716
X-21.59 Z-1.059
X-21.6 Y-6.73
X-21.595 Y-6.746 Z-1.06
X-21.579 Y-6.751 Z-1.061
X-21.566 Y-6.741
X-21.565 Y-6.725 Z-1.062
X-21.579 Y-6.715
X-21.595 Y-6.719 Z-1.063
X-21.6 Y-6.735 Z-1.064
X-21.591 Y-6.749
X-21.574 Y-6.75 Z-1.065
X-21.564 Y-6.736
X-21.568 Y-6.72 Z-1.066
X-21.584 Y-6.714 Z-1.067
X-21.598 Y-6.723
X-21.599 Y-6.74 Z-1.068
X-21.586 Y-6.751
X-21.57 Y-6.747 Z-1.069
X-21.564 Y-6.731 Z-1.07
X-21.572 Y-6.717
X-21.589 Y-6.716 Z-1.071
X-21.6 Y-6.728 Z-1.072
X-21.596 Y-6.745
X-21.581 Y-6.751 Z-1.073
X-21.566 Y-6.743
X-21.565 Y-6.726 Z-1.074
X-21.577 Y-6.715 Z-1.075
X-21.594 Y-6.718
X-21.601 Y-6.734 Z-1.076
X-21.592 Y-6.748
X-21.576 Y-6.75 Z-1.077
X-21.564 Y-6.738 Z-1.078
X-21.567 Y-6.721
X-21.583 Y-6.714 Z-1.079
X-21.597 Y-6.722
X-21.6 Y-6.739 Z-1.08
X-21.588 Y-6.75 Z-1.081
X-21.571 Y-6.748
X-21.564 Y-6.733 Z-1.082
X-21.571 Y-6.718
X-21.588 Y-6.715 Z-1.083
X-21.6 Y-6.727 Z-1.084
X-21.597 Y-6.743
X-21.582 Y-6.751 Z-1.085
X-21.567 Y-6.744
X-21.564 Y-6.727 Z-1.086
X-21.576 Y-6.715 Z-1.087
X-21.593 Y-6.717
X-21.601 Y-6.732 Z-1.088
X-21.594 Y-6.747
X-21.577 Y-6.751 Z-1.089
X-21.565 Y-6.739 Z-1.09
X-21.567 Y-6.723
X-21.581 Y-6.714 Z-1.091
X-21.596 Y-6.721 Z-1.092
X-21.6 Y-6.737
X-21.589 Y-6.75 Z-1.093
X-21.572 Y-6.748
X-21.564 Y-6.734 Z-1.094
X-21.57 Y-6.719 Z-1.095
X-21.586 Y-6.715
X-21.599 Y-6.726 Z-1.096
X-21.598 Y-6.742
X-21.584 Y-6.751 Z-1.097
X-21.568 Y-6.745 Z-1.098
X-21.564 Y-6.729
X-21.575 Y-6.716 Z-1.099
X-21.591 Y-6.717
X-21.6 Y-6.731 Z-1.1
X-21.602 Y-6.743 F1000
X-21.597 Y-6.76
X-21.581 Y-6.769
X-21.538 Y-6.774
X-21.536
X-21.492 Y-6.768
X-21.49
X-21.449 Y-6.752
X-21.447 Y-6.751
X-21.412 Y-6.726
X-21.41 Y-6.724
X-21.381 Y-6.69
X-21.38 Y-6.688
X-21.361 Y-6.651
X-21.36 Y-6.649
X-21.351 Y-6.606
X-21.35 Y-6.603
X-21.351 Y-6.56
X-21.352 Y-6.558
X-21.363 Y-6.517
X-21.364 Y-6.514
X-21.385 Y-6.475
X-21.387 Y-6.473
X-21.416 Y-6.442
X-21.418 Y-6.441
X-21.457 Y-6.415
X-21.46 Y-6.414
X-21.505 Y-6.397
X-21.507 Y-6.396
X-21.551 Y-6.391
X-21.553
X-21.596 Y-6.397
X-21.598
X-21.639 Y-6.413
X-21.641 Y-6.414
X-21.678 Y-6.44
X-21.679 Y-6.442
X-21.707 Y-6.474
X-21.708 Y-6.476
X-21.728 Y-6.515
Y-6.517
X-21.738 Y-6.56
Y-6.562
X-21.737 Y-6.606
Y-6.608
X-21.725 Y-6.649
Y-6.651
X-21.703 Y-6.69
X-21.702 Y-6.691
X-21.672 Y-6.723
X-21.67 Y-6.724
X-21.63 Y-6.751
X-21.628
X-21.583 Y-6.768
X-21.581 Y-6.769
X-21.57 Y-6.766
